(SCOUTBRIDGE)
(T4  D=0.25 CR=0 TAPER=90DEG - ZMIN=-0.2688 - SPOT DRILL)
(T5  D=0.25 CR=0 - ZMIN=-0.7421 - FLAT END MILL)
G0 G40 G90 G17
G20
G0 Z0.6

(ENGRAVE2)
T4 M6
M3 S1680
G0 X-3.0818 Y14.6201
G0 Z0.6
G0 Z0.05
G1 Z-0.2688 F30.
G1 X-2.9712 Y14.6747
G1 X-0.6515 Y15.819
G3 X-0.6487 Y15.8274 I-0.0028 J0.0056
G3 X-0.6543 Y15.8308 I-0.0056 J-0.0028
G3 X-0.657 Y15.8302 I0 J-0.0063
G1 X-2.9767 Y14.6859
G2 X-3.1358 Y14.7399 I-0.0525 J0.1065
G2 X-3.148 Y14.7924 I0.1065 J0.0525
G1 Y16.3246
G3 X-3.1543 Y16.3309 I-0.0062 J0
G3 X-3.1605 Y16.3246 I0 J-0.0062
G1 Y14.7924
G2 X-3.2793 Y14.6737 I-0.1188 J0
G2 X-3.3318 Y14.6859 I0 J0.1187
G1 X-5.6515 Y15.8302
G3 X-5.6543 Y15.8309 I-0.0028 J-0.0056
G3 X-5.6599 Y15.8274 I0 J-0.0063
G3 X-5.6605 Y15.8246 I0.0056 J-0.0028
G3 X-5.6571 Y15.819 I0.0063 J0
G1 X-5.657
G1 X-3.2267 Y14.6201
G2 X-3.1605 Y14.5136 I-0.0525 J-0.1065
G1 Y12.7098
G2 X-3.2793 Y12.591 I-0.1188 J0
G2 X-3.3312 Y12.603 I0 J0.1188
G1 X-5.6515 Y13.7302
G1 X-5.6516
G3 X-5.6599 Y13.7274 I-0.0027 J-0.0056
G3 X-5.6602 Y13.7226 I0.0056 J-0.0027
G3 X-5.657 Y13.719 I0.0059 J0.002
G1 X-3.2274 Y12.5386
G2 X-3.1605 Y12.4318 I-0.0519 J-0.1068
G1 Y10.7031
G2 X-3.2793 Y10.5843 I-0.1188 J0
G2 X-3.3276 Y10.5946 I0 J0.1188
G1 X-5.6517 Y11.6303
G3 X-5.6543 Y11.6309 I-0.0025 J-0.0057
G3 X-5.6605 Y11.6246 I0 J-0.0063
G3 X-5.6568 Y11.6189 I0.0062 J0
G1 X-3.2309 Y10.5378
G2 X-3.1605 Y10.4294 I-0.0483 J-0.1085
G1 Y-8.1071
G2 X-3.2793 Y-8.2258 I-0.1188 J0
G2 X-3.328 Y-8.2154 I0 J0.1187
G1 X-5.6517 Y-7.1697
G3 X-5.6543 Y-7.1692 I-0.0026 J-0.0057
G3 X-5.6605 Y-7.1754 I0 J-0.0062
G3 X-5.6594 Y-7.179 I0.0062 J0
G1 X-5.3904 Y-7.5555
G1 X-3.1594 Y-10.679
G3 X-3.1543 Y-10.6816 I0.0051 J0.0036
G3 X-3.1492 Y-10.679 I0 J0.0062
G1 X-0.6492 Y-7.179
G3 X-0.6507 Y-7.1703 I-0.0051 J0.0036
G3 X-0.6543 Y-7.1692 I-0.0036 J-0.0051
G3 X-0.6568 Y-7.1697 I0 J-0.0062
G1 X-2.9806 Y-8.2154
G2 X-3.1376 Y-8.1558 I-0.0487 J0.1083
G2 X-3.148 Y-8.1071 I0.1083 J0.0487
G1 Y10.4294
G2 X-3.0776 Y10.5378 I0.1188 J0
G1 X-0.6517 Y11.6189
G3 X-0.648 Y11.6246 I-0.0025 J0.0057
G3 X-0.6486 Y11.6271 I-0.0062 J0
G3 X-0.6568 Y11.6303 I-0.0057 J-0.0025
G1 X-2.9809 Y10.5946
G2 X-3.1378 Y10.6547 I-0.0483 J0.1085
G2 X-3.148 Y10.7031 I0.1085 J0.0483
G1 Y12.4318
G2 X-3.0812 Y12.5386 I0.1188 J0
G1 X-2.9719 Y12.5917
G1 X-0.6516 Y13.719
G3 X-0.6487 Y13.7273 I-0.0027 J0.0056
G3 X-0.6543 Y13.7309 I-0.0056 J-0.0027
G3 X-0.657 Y13.7302 I0 J-0.0063
G1 X-2.9774 Y12.603
G2 X-3.1361 Y12.6579 I-0.0519 J0.1068
G2 X-3.148 Y12.7098 I0.1068 J0.0519
G1 Y14.5136
G2 X-3.0818 Y14.6201 I0.1188 J0
G0 Z0.2
G0 X-1.036 Y-7.361
G0 Z0.05
G1 Z-0.2688 F30.
G2 X-0.9067 Y-7.4682 I0.011 J-0.1182
G2 X-0.9283 Y-7.5483 I-0.1182 J-0.011
G1 X-3.0577 Y-10.5294
G2 X-3.2233 Y-10.557 I-0.0966 J0.069
G2 X-3.2509 Y-10.5294 I0.069 J0.0966
G1 X-5.3803 Y-7.5483
G2 X-5.3526 Y-7.3826 I0.0966 J0.069
G2 X-5.2349 Y-7.371 I0.069 J-0.0966
G1 X-3.1569 Y-8.3061
G3 X-3.1517 I0.0026 J0.0057
G1 X-1.0737 Y-7.371
G2 X-1.036 Y-7.361 I0.0487 J-0.1083
G0 Z0.2
G0 X0.73 Y-5.2916
G0 Z0.05
G1 Z-0.2688 F30.
G1 X-1.1583 Y-3.6801
G2 X-1.1605 Y-3.6754 I0.0041 J0.0048
G2 X-1.1586 Y-3.6708 I0.0062 J0
G3 X-1.0593 Y-3.5762 I-5.6183 J5.9962
G3 X-1.0278 Y-3.5456 I-5.7157 J5.9035
G3 X-0.991 Y-3.5093 I-5.7499 J5.8702
G3 X-0.9544 Y-3.4728 I-5.7867 J5.8339
G3 X-0.9181 Y-3.4361 I-5.8233 J5.7974
G3 X-0.882 Y-3.3991 I-5.8596 J5.7607
G3 X-0.8461 Y-3.3619 I-5.8957 J5.7237
G3 X-0.775 Y-3.2869 I-5.9316 J5.6865
G3 X-0.7399 Y-3.249 I-6.0027 J5.6115
G3 X-0.7049 Y-3.2109 I-6.0378 J5.5736
G3 X-0.6702 Y-3.1726 I-6.0728 J5.5355
G3 X-0.6358 Y-3.1341 I-6.1075 J5.4972
G3 X-0.6016 Y-3.0954 I-6.1419 J5.4587
G3 X-0.5676 Y-3.0564 I-6.1761 J5.42
G3 X-0.5339 Y-3.0173 I-6.2101 J5.381
G3 X-0.5004 Y-2.9779 I-6.2438 J5.3419
G3 X-0.4672 Y-2.9383 I-6.2773 J5.3025
G3 X-0.4342 Y-2.8985 I-6.3105 J5.2629
G3 X-0.4015 Y-2.8585 I-6.3435 J5.2231
G3 X-0.369 Y-2.8183 I-6.3762 J5.1831
G3 X-0.3368 Y-2.7779 I-6.4087 J5.1429
G3 X-0.3048 Y-2.7373 I-6.4409 J5.1025
G3 X-0.2731 Y-2.6965 I-6.4729 J5.0619
G3 X-0.2417 Y-2.6555 I-6.5046 J5.0211
G3 X-0.2105 Y-2.6143 I-6.536 J4.9801
G3 X-0.1796 Y-2.5729 I-6.5672 J4.9389
G3 X-0.1489 Y-2.5313 I-6.5982 J4.8975
G3 X-0.1185 Y-2.4895 I-6.6288 J4.8559
G3 X-0.0883 Y-2.4475 I-6.6592 J4.8141
G3 X-0.0585 Y-2.4053 I-6.6894 J4.7721
G3 X-0.0288 Y-2.363 I-6.7193 J4.7299
G3 X0.0005 Y-2.3204 I-6.7489 J4.6876
G3 X0.0296 Y-2.2777 I-6.7782 J4.645
G3 X0.0584 Y-2.2348 I-6.8073 J4.6023
G3 X0.0869 Y-2.1917 I-6.8361 J4.5594
G3 X0.1152 Y-2.1485 I-6.8647 J4.5163
G3 X0.1432 Y-2.105 I-6.8929 J4.4731
G3 X0.1709 Y-2.0614 I-6.9209 J4.4296
G3 X0.1984 Y-2.0176 I-6.9486 J4.386
G3 X0.2255 Y-1.9737 I-6.9761 J4.3422
G3 X0.2524 Y-1.9295 I-7.0033 J4.2983
G3 X0.2791 Y-1.8852 I-7.0302 J4.2541
G3 X0.3054 Y-1.8408 I-7.0568 J4.2098
G3 X0.3315 Y-1.7961 I-7.0831 J4.1654
G3 X0.3572 Y-1.7514 I-7.1092 J4.1207
G1 X0.3576 Y-1.7507
G3 X0.3831 Y-1.7058 I-7.1353 J4.0753
G3 X0.4083 Y-1.6606 I-7.1608 J4.0304
G3 X0.4332 Y-1.6154 I-7.186 J3.9852
G3 X0.4578 Y-1.5699 I-7.2109 J3.94
G3 X0.4822 Y-1.5244 I-7.2356 J3.8945
G3 X0.6036 Y-1.2861 I-7.2602 J3.8483
G3 X0.6222 Y-1.2478 I-7.3793 J3.6147
G3 X0.6445 Y-1.2012 I-7.3999 J3.5724
G3 X0.6665 Y-1.1545 I-7.4222 J3.5258
G3 X0.6883 Y-1.1076 I-7.4443 J3.4791
G3 X0.7097 Y-1.0605 I-7.466 J3.4322
G3 X0.7309 Y-1.0134 I-7.4874 J3.3851
G3 X0.7517 Y-0.9661 I-7.5086 J3.338
G3 X0.7723 Y-0.9187 I-7.5294 J3.2907
G3 X0.7925 Y-0.8711 I-7.55 J3.2433
G3 X0.8124 Y-0.8234 I-7.5702 J3.1957
G3 X0.8321 Y-0.7756 I-7.5902 J3.148
G3 X0.8705 Y-0.6797 I-7.6098 J3.1002
G3 X0.8892 Y-0.6315 I-7.6482 J3.0043
G3 X0.9077 Y-0.5832 I-7.667 J2.9561
G3 X0.9258 Y-0.5348 I-7.6854 J2.9078
G3 X0.9436 Y-0.4863 I-7.7035 J2.8594
G3 X0.9612 Y-0.4377 I-7.7214 J2.8109
G3 X0.9784 Y-0.389 I-7.7389 J2.7623
G3 X1.0119 Y-0.2912 I-7.7561 J2.7136
G3 X1.0282 Y-0.2422 I-7.7896 J2.6158
G3 X1.0442 Y-0.193 I-7.8059 J2.5668
G3 X1.0599 Y-0.1438 I-7.8219 J2.5176
G3 X1.0753 Y-0.0944 I-7.8376 J2.4684
G3 X1.0903 Y-0.045 I-7.853 J2.419
G3 X1.1051 Y0.0045 I-7.868 J2.3696
G3 X1.1195 Y0.0542 I-7.8828 J2.3201
G3 X1.1336 Y0.1039 I-7.8972 J2.2704
G3 X1.1474 Y0.1537 I-7.9113 J2.2207
G3 X1.1609 Y0.2036 I-7.9251 J2.1709
G3 X1.1741 Y0.2535 I-7.9386 J2.121
G3 X1.187 Y0.3036 I-7.9518 J2.071
G3 X1.1995 Y0.3537 I-7.9647 J2.021
G3 X1.2118 Y0.4039 I-7.9772 J1.9709
G3 X1.2237 Y0.4542 I-7.9895 J1.9206
G3 X1.2324 Y0.4919 I-8.0029 J1.8641
G3 X1.2885 Y0.7573 I-8.0099 J1.8336
G1 X1.2887 Y0.758
G3 X1.2984 Y0.8088 I-8.0664 J1.5666
G3 X1.3077 Y0.8596 I-8.0761 J1.5158
G3 X1.3168 Y0.9104 I-8.0854 J1.465
G3 X1.3255 Y0.9614 I-8.0945 J1.4142
G3 X1.3339 Y1.0123 I-8.1032 J1.3632
G3 X1.342 Y1.0634 I-8.1116 J1.3123
G3 X1.3498 Y1.1144 I-8.1197 J1.2613
G3 X1.3572 Y1.1655 I-8.1275 J1.2102
G3 X1.3644 Y1.2167 I-8.1349 J1.1591
G3 X1.3712 Y1.2679 I-8.1421 J1.1079
G3 X1.3776 Y1.3192 I-8.1489 J1.0567
G3 X1.3838 Y1.3705 I-8.1554 J1.0054
G3 X1.3896 Y1.4218 I-8.1615 J0.9541
G3 X1.3952 Y1.4732 I-8.1674 J0.9028
G3 X1.4003 Y1.5246 I-8.1729 J0.8514
G3 X1.4052 Y1.576 I-8.1781 J0.8
G3 X1.4098 Y1.6275 I-8.1829 J0.7486
G3 X1.414 Y1.6789 I-8.1875 J0.6971
G3 X1.4179 Y1.7305 I-8.1917 J0.6456
G3 X1.4215 Y1.782 I-8.1956 J0.5941
G3 X1.4247 Y1.8335 I-8.1992 J0.5426
G3 X1.4276 Y1.8851 I-8.2024 J0.491
G3 X1.4302 Y1.9367 I-8.2053 J0.4395
G3 X1.4325 Y1.989 I-8.2079 J0.3879
G3 X1.4345 Y2.0407 I-8.2102 J0.3356
G3 X1.4361 Y2.0923 I-8.2122 J0.2839
G3 X1.4374 Y2.144 I-8.2138 J0.2323
G3 X1.4384 Y2.1956 I-8.2151 J0.1807
G3 X1.439 Y2.2473 I-8.2161 J0.129
G3 X1.4393 Y2.2989 I-8.2167 J0.0773
G3 Y2.3246 I-8.2171 J0.0129
G3 X1.4361 Y2.5572 I-8.2171 J0.0014
G3 X1.4345 Y2.6088 I-8.2138 J-0.2326
G3 X1.4325 Y2.6605 I-8.2122 J-0.2842
G3 X1.4302 Y2.7121 I-8.2102 J-0.3359
G3 X1.4276 Y2.7637 I-8.208 J-0.3875
G3 X1.4247 Y2.8153 I-8.2054 J-0.4391
G3 X1.4215 Y2.8669 I-8.2024 J-0.4907
G3 X1.4179 Y2.9184 I-8.1992 J-0.5423
G3 X1.414 Y2.97 I-8.1956 J-0.5938
G3 X1.4098 Y3.0215 I-8.1917 J-0.6454
G3 X1.4052 Y3.0729 I-8.1875 J-0.6969
G3 X1.4004 Y3.1244 I-8.183 J-0.7484
G3 X1.3952 Y3.1758 I-8.1781 J-0.7998
G3 X1.3897 Y3.2272 I-8.1729 J-0.8512
G3 X1.3838 Y3.2785 I-8.1674 J-0.9026
G3 X1.3777 Y3.3299 I-8.1615 J-0.954
G3 X1.3712 Y3.3811 I-8.1554 J-1.0053
G3 X1.3644 Y3.4324 I-8.1489 J-1.0565
G3 X1.3572 Y3.4835 I-8.1421 J-1.1078
G3 X1.3498 Y3.5347 I-8.135 J-1.1589
G3 X1.342 Y3.5858 I-8.1275 J-1.2101
G3 X1.3339 Y3.6368 I-8.1197 J-1.2612
G3 X1.3255 Y3.6878 I-8.1116 J-1.3122
G3 X1.3168 Y3.7387 I-8.1032 J-1.3632
G3 X1.3077 Y3.7896 I-8.0945 J-1.4141
G3 X1.2984 Y3.8404 I-8.0854 J-1.465
G3 X1.2887 Y3.8912 I-8.0761 J-1.5159
G3 X1.2787 Y3.9419 I-8.0664 J-1.5666
G3 X1.2683 Y3.9925 I-8.0564 J-1.6173
G3 X1.2577 Y4.0431 I-8.046 J-1.6679
G3 X1.2519 Y4.0697 I-8.0329 J-1.7302
G3 X1.1959 Y4.3099 I-8.0297 J-1.7449
G3 X1.187 Y4.3456 I-7.9754 J-1.9782
G3 X1.1741 Y4.3957 I-7.9647 J-2.021
G3 X1.1609 Y4.4457 I-7.9518 J-2.0711
G3 X1.1474 Y4.4956 I-7.9386 J-2.1211
G3 X1.1195 Y4.5951 I-7.9251 J-2.171
G3 X1.105 Y4.6447 I-7.8972 J-2.2705
G3 X1.0903 Y4.6942 I-7.8828 J-2.3201
G3 X1.0752 Y4.7437 I-7.868 J-2.3696
G3 X1.0599 Y4.793 I-7.853 J-2.4191
G3 X1.0442 Y4.8423 I-7.8376 J-2.4684
G3 X1.0282 Y4.8914 I-7.8219 J-2.5177
G3 X1.0119 Y4.9405 I-7.8059 J-2.5668
G3 X0.9953 Y4.9894 I-7.7896 J-2.6159
G3 X0.9784 Y5.0382 I-7.773 J-2.6648
G3 X0.9612 Y5.087 I-7.7561 J-2.7136
G3 X0.9436 Y5.1356 I-7.7389 J-2.7624
G3 X0.9258 Y5.1841 I-7.7213 J-2.811
G3 X0.9077 Y5.2325 I-7.7035 J-2.8595
G3 X0.8892 Y5.2808 I-7.6854 J-2.9079
G3 X0.8705 Y5.3289 I-7.6669 J-2.9562
G3 X0.8514 Y5.377 I-7.6482 J-3.0043
G3 X0.8321 Y5.4249 I-7.6291 J-3.0524
G3 X0.8124 Y5.4727 I-7.6098 J-3.1003
G3 X0.7925 Y5.5204 I-7.5901 J-3.1481
G3 X0.7722 Y5.5679 I-7.5702 J-3.1958
G3 X0.7517 Y5.6153 I-7.5499 J-3.2433
G3 X0.7308 Y5.6626 I-7.5294 J-3.2907
G3 X0.6883 Y5.7568 I-7.5086 J-3.338
G3 X0.6665 Y5.8037 I-7.466 J-3.4322
G3 X0.6445 Y5.8504 I-7.4442 J-3.4791
G3 X0.6222 Y5.8971 I-7.4222 J-3.5259
G3 X0.5996 Y5.9435 I-7.3999 J-3.5725
G3 X0.5766 Y5.9899 I-7.3773 J-3.6189
G3 X0.5534 Y6.036 I-7.3544 J-3.6653
G3 X0.5334 Y6.0753 I-7.3295 J-3.7148
G3 X0.4083 Y6.3099 I-7.3114 J-3.7501
G3 X0.3831 Y6.355 I-7.186 J-3.9853
G3 X0.3576 Y6.4 I-7.1608 J-4.0304
G3 X0.3318 Y6.4447 I-7.1353 J-4.0754
G3 X0.3057 Y6.4894 I-7.1095 J-4.1202
G3 X0.2794 Y6.5338 I-7.0835 J-4.1648
G3 X0.2528 Y6.5781 I-7.0571 J-4.2093
G3 X0.2259 Y6.6223 I-7.0305 J-4.2536
G1 X0.2255 Y6.6229
G3 X0.1984 Y6.6669 I-7.0032 J-4.2983
G3 X0.1709 Y6.7107 I-6.9761 J-4.3423
G3 X0.1432 Y6.7543 I-6.9486 J-4.3861
G3 X0.1152 Y6.7977 I-6.9209 J-4.4297
G3 X0.0869 Y6.841 I-6.8929 J-4.4731
G3 X0.0584 Y6.8841 I-6.8646 J-4.5164
G3 X0.0296 Y6.927 I-6.8361 J-4.5595
G3 X0.0005 Y6.9697 I-6.8073 J-4.6024
G3 X-0.0289 Y7.0122 I-6.7782 J-4.6451
G3 X-0.0585 Y7.0546 I-6.7489 J-4.6876
G3 X-0.0884 Y7.0967 I-6.7192 J-4.73
G3 X-0.1185 Y7.1387 I-6.6894 J-4.7721
G3 X-0.1489 Y7.1805 I-6.6592 J-4.8141
G3 X-0.1796 Y7.2221 I-6.6288 J-4.8559
G3 X-0.2105 Y7.2635 I-6.5981 J-4.8975
G3 X-0.2417 Y7.3047 I-6.5672 J-4.9389
G3 X-0.2732 Y7.3457 I-6.536 J-4.9801
G3 X-0.3049 Y7.3865 I-6.5046 J-5.0211
G3 X-0.3368 Y7.4271 I-6.4729 J-5.0619
G3 X-0.369 Y7.4675 I-6.4409 J-5.1025
G3 X-0.4015 Y7.5077 I-6.4087 J-5.1429
G3 X-0.4342 Y7.5477 I-6.3762 J-5.1831
G3 X-0.4672 Y7.5875 I-6.3435 J-5.2231
G3 X-0.5004 Y7.6271 I-6.3105 J-5.2629
G3 X-0.5339 Y7.6665 I-6.2773 J-5.3025
G3 X-0.5676 Y7.7056 I-6.2438 J-5.3419
G3 X-0.6016 Y7.7446 I-6.2101 J-5.381
G3 X-0.6358 Y7.7833 I-6.1761 J-5.42
G3 X-0.6703 Y7.8219 I-6.1419 J-5.4587
G3 X-0.705 Y7.8602 I-6.1075 J-5.4973
G3 X-0.7399 Y7.8982 I-6.0728 J-5.5356
G3 X-0.7751 Y7.9361 I-6.0378 J-5.5736
G3 X-0.8105 Y7.9737 I-6.0027 J-5.6115
G3 X-0.8461 Y8.0112 I-5.9672 J-5.6491
G3 X-0.882 Y8.0484 I-5.9316 J-5.6866
G3 X-0.9181 Y8.0853 I-5.8957 J-5.7238
G3 X-0.9545 Y8.1221 I-5.8596 J-5.7607
G3 X-0.991 Y8.1586 I-5.8233 J-5.7975
G3 X-1.0278 Y8.1948 I-5.7867 J-5.834
G3 X-1.061 Y8.2271 I-5.748 J-5.8721
G3 X-1.1586 Y8.32 I-5.7156 J-5.9036
G2 X-1.1605 Y8.3247 I0.0043 J0.0046
G2 X-1.1584 Y8.3293 I0.0063 J-0.0001
G1 X-1.0565 Y8.4195
G1 X2.658 Y11.7055
G2 X2.6669 Y11.705 I0.0041 J-0.0047
G2 X2.6684 Y11.7009 I-0.0047 J-0.0041
G2 X2.6663 Y11.6962 I-0.0062 J0
G1 X-1.0482 Y8.4101
G3 X-1.0882 Y8.324 I0.0787 J-0.0889
G3 X-1.0523 Y8.2361 I0.1187 J-0.0028
G1 X-1.0521 Y8.2359
G2 X-1.0191 Y8.2037 I-5.7254 J-5.9115
G2 X-0.9823 Y8.1674 I-5.7586 J-5.8791
G2 X-0.9456 Y8.1309 I-5.7955 J-5.8428
G2 X-0.9092 Y8.0941 I-5.8321 J-5.8062
G2 X-0.8731 Y8.057 I-5.8685 J-5.7694
G2 X-0.8371 Y8.0198 I-5.9047 J-5.7324
G2 X-0.8014 Y7.9823 I-5.9406 J-5.6952
G2 X-0.766 Y7.9446 I-5.9763 J-5.6577
G2 X-0.7307 Y7.9067 I-6.0117 J-5.62
G2 X-0.6957 Y7.8686 I-6.047 J-5.5821
G2 X-0.661 Y7.8302 I-6.0819 J-5.544
G2 X-0.6265 Y7.7916 I-6.1167 J-5.5056
G2 X-0.5922 Y7.7528 I-6.1512 J-5.4671
G2 X-0.5582 Y7.7138 I-6.1854 J-5.4283
G2 X-0.5244 Y7.6746 I-6.2194 J-5.3893
G2 X-0.4909 Y7.6352 I-6.2532 J-5.3501
G2 X-0.4576 Y7.5955 I-6.2867 J-5.3106
G2 X-0.4246 Y7.5557 I-6.32 J-5.271
G2 X-0.3918 Y7.5156 I-6.353 J-5.2312
G2 X-0.3593 Y7.4753 I-6.3858 J-5.1911
G2 X-0.3271 Y7.4349 I-6.4183 J-5.1509
G2 X-0.295 Y7.3942 I-6.4506 J-5.1104
G2 X-0.2633 Y7.3533 I-6.4826 J-5.0697
G2 X-0.2318 Y7.3123 I-6.5143 J-5.0289
G2 X-0.2006 Y7.271 I-6.5458 J-4.9878
G2 X-0.1696 Y7.2295 I-6.577 J-4.9466
G2 X-0.1389 Y7.1879 I-6.608 J-4.9051
G2 X-0.1084 Y7.146 I-6.6387 J-4.8635
G2 X-0.0782 Y7.104 I-6.6692 J-4.8216
G2 X-0.0483 Y7.0618 I-6.6994 J-4.7796
G2 X-0.0186 Y7.0194 I-6.7293 J-4.7374
G2 X0.0108 Y6.9768 I-6.7589 J-4.695
G2 X0.0399 Y6.934 I-6.7883 J-4.6524
G2 X0.0688 Y6.891 I-6.8174 J-4.6096
G2 X0.0973 Y6.8479 I-6.8463 J-4.5667
G2 X0.1257 Y6.8045 I-6.8749 J-4.5235
G2 X0.1537 Y6.761 I-6.9032 J-4.4802
G2 X0.1815 Y6.7174 I-6.9312 J-4.4367
G2 X0.2089 Y6.6735 I-6.959 J-4.3931
G2 X0.2362 Y6.6295 I-6.9865 J-4.3492
G1 X0.2366 Y6.6288
G2 X0.2635 Y6.5846 I-7.0145 J-4.3039
G2 X0.2902 Y6.5402 I-7.0414 J-4.2597
G2 X0.3165 Y6.4957 I-7.0681 J-4.2153
G2 X0.3426 Y6.451 I-7.0944 J-4.1708
G2 X0.3684 Y6.4061 I-7.1205 J-4.1261
G2 X0.394 Y6.3611 I-7.1463 J-4.0812
G2 X0.4192 Y6.3159 I-7.1718 J-4.0362
G2 X0.4288 Y6.2984 I-7.2017 J-3.9826
G3 X0.5013 Y6.2413 I0.104 J0.0573
G3 X0.5928 Y6.2533 I0.0315 J0.1145
G1 X4.0426 Y8.2717
G2 X4.0457 Y8.2725 I0.0031 J-0.0054
G2 X4.052 Y8.2663 I0 J-0.0063
G2 X4.0489 Y8.2609 I-0.0063 J0
G1 X0.5904 Y6.2374
G3 X0.5446 Y6.081 I0.06 J-0.1025
G1 X0.5447 Y6.0807
G2 X0.5646 Y6.0417 I-7.3221 J-3.7566
G2 X0.5878 Y5.9954 I-7.3424 J-3.717
G2 X0.6108 Y5.949 I-7.3656 J-3.6707
G2 X0.6334 Y5.9025 I-7.3885 J-3.6243
G2 X0.6558 Y5.8558 I-7.4112 J-3.5778
G2 X0.6778 Y5.809 I-7.4335 J-3.5311
G2 X0.6996 Y5.762 I-7.4556 J-3.4843
G2 X0.7211 Y5.7149 I-7.4773 J-3.4373
G2 X0.7422 Y5.6677 I-7.4988 J-3.3903
G2 X0.7631 Y5.6203 I-7.52 J-3.343
G2 X0.7837 Y5.5728 I-7.5409 J-3.2957
G2 X0.804 Y5.5252 I-7.5614 J-3.2482
G2 X0.824 Y5.4775 I-7.5817 J-3.2006
G2 X0.8436 Y5.4296 I-7.6017 J-3.1528
G2 X0.863 Y5.3816 I-7.6214 J-3.105
G2 X0.8821 Y5.3335 I-7.6407 J-3.057
G2 X0.9009 Y5.2852 I-7.6598 J-3.0089
G2 X0.9193 Y5.2369 I-7.6786 J-2.9606
G2 X0.9375 Y5.1884 I-7.697 J-2.9123
G2 X0.9554 Y5.1398 I-7.7152 J-2.8638
G2 X0.9729 Y5.0912 I-7.7331 J-2.8153
G2 X0.9902 Y5.0424 I-7.7506 J-2.7666
G2 X1.0071 Y4.9934 I-7.7679 J-2.7178
G2 X1.0237 Y4.9444 I-7.7848 J-2.6689
G2 X1.04 Y4.8953 I-7.8014 J-2.6199
G2 X1.0561 Y4.8461 I-7.8177 J-2.5708
G2 X1.0718 Y4.7968 I-7.8338 J-2.5216
G2 X1.0872 Y4.7474 I-7.8495 J-2.4722
G2 X1.1022 Y4.6978 I-7.8649 J-2.4228
G2 X1.117 Y4.6482 I-7.8799 J-2.3733
G2 X1.1315 Y4.5985 I-7.8947 J-2.3237
G2 X1.1456 Y4.5488 I-7.9092 J-2.274
G2 X1.1594 Y4.4989 I-7.9233 J-2.2243
G2 X1.173 Y4.4489 I-7.9371 J-2.1744
G2 X1.1862 Y4.3989 I-7.9507 J-2.1244
G2 X1.1991 Y4.3487 I-7.9639 J-2.0744
G2 X1.208 Y4.313 I-7.9775 J-2.0214
G1 X1.2081 Y4.3129
G3 X1.2652 Y4.2381 I0.1152 J0.0288
G3 X1.3589 Y4.2285 I0.058 J0.1036
G1 X4.5438 Y5.2305
G1 X4.5439 Y5.2306
G2 X4.5457 Y5.2308 I0.0019 J-0.006
G2 X4.5517 Y5.2265 I0 J-0.0062
G2 X4.5476 Y5.2186 I-0.006 J-0.0019
G1 X1.3445 Y4.2108
G3 X1.2641 Y4.0724 I0.0356 J-0.1133
G1 Y4.0723
G2 X1.2699 Y4.0457 I-8.0397 J-1.7578
G2 X1.2806 Y3.995 I-8.0477 J-1.7207
G2 X1.2909 Y3.9443 I-8.0584 J-1.6701
G2 X1.3009 Y3.8936 I-8.0687 J-1.6194
G2 X1.3106 Y3.8427 I-8.0787 J-1.5686
G2 X1.32 Y3.7918 I-8.0884 J-1.5178
G2 X1.3291 Y3.7409 I-8.0978 J-1.4669
G2 X1.3378 Y3.6899 I-8.1069 J-1.416
G2 X1.3463 Y3.6388 I-8.1156 J-1.365
G2 X1.3544 Y3.5877 I-8.124 J-1.3139
G2 X1.3622 Y3.5365 I-8.1321 J-1.2628
G2 X1.3696 Y3.4853 I-8.1399 J-1.2117
G2 X1.3767 Y3.434 I-8.1474 J-1.1605
G2 X1.3836 Y3.3827 I-8.1545 J-1.1092
G2 X1.3901 Y3.3314 I-8.1613 J-1.0579
G2 X1.3962 Y3.28 I-8.1678 J-1.0066
G2 X1.4021 Y3.2286 I-8.174 J-0.9552
G2 X1.4076 Y3.1771 I-8.1798 J-0.9038
G2 X1.4128 Y3.1256 I-8.1853 J-0.8523
G2 X1.4177 Y3.0741 I-8.1905 J-0.8009
G2 X1.4222 Y3.0225 I-8.1954 J-0.7493
G2 X1.4264 Y2.9709 I-8.1999 J-0.6978
G2 X1.4303 Y2.9193 I-8.2042 J-0.6462
G2 X1.4339 Y2.8677 I-8.2081 J-0.5946
G2 X1.4372 Y2.816 I-8.2116 J-0.543
G2 X1.4401 Y2.7644 I-8.2149 J-0.4914
G2 X1.4427 Y2.7127 I-8.2178 J-0.4397
G2 X1.445 Y2.661 I-8.2204 J-0.388
G2 X1.4469 Y2.6092 I-8.2227 J-0.3363
G2 X1.4486 Y2.5575 I-8.2247 J-0.2846
G1 Y2.5566
G3 X1.5673 Y2.4412 I0.1187 J0.0033
G1 X4.6457
G2 X4.652 Y2.4349 I0 J-0.0062
G2 X4.6457 Y2.4287 I-0.0062 J0
G1 X1.5706
G3 X1.4518 Y2.3101 I0 J-0.1188
G2 Y2.2989 I-8.2296 J0.0088
G2 X1.4515 Y2.2472 I-8.2295 J0.0252
G2 X1.4509 Y2.1954 I-8.2292 J0.0769
G2 X1.4499 Y2.1437 I-8.2286 J0.1285
G2 X1.4486 Y2.092 I-8.2276 J0.1802
G2 X1.447 Y2.0403 I-8.2263 J0.2318
G2 X1.445 Y1.9886 I-8.2247 J0.2834
G2 X1.4427 Y1.9361 I-8.2227 J0.3362
G2 X1.4401 Y1.8844 I-8.2204 J0.3894
G2 X1.4372 Y1.8328 I-8.2178 J0.441
G2 X1.4339 Y1.7811 I-8.2148 J0.4925
G2 X1.4303 Y1.7295 I-8.2116 J0.5441
G2 X1.4264 Y1.6779 I-8.208 J0.5956
G2 X1.4222 Y1.6264 I-8.2041 J0.6471
G2 X1.4176 Y1.5748 I-8.1999 J0.6986
G2 X1.4128 Y1.5233 I-8.1953 J0.7501
G2 X1.4076 Y1.4719 I-8.1905 J0.8015
G2 X1.402 Y1.4204 I-8.1853 J0.8529
G2 X1.3962 Y1.369 I-8.1797 J0.9042
G2 X1.39 Y1.3177 I-8.1739 J0.9556
G2 X1.3835 Y1.2663 I-8.1678 J1.0068
G2 X1.3767 Y1.215 I-8.1613 J1.0581
G2 X1.3696 Y1.1638 I-8.1545 J1.1093
G2 X1.3621 Y1.1126 I-8.1473 J1.1605
G2 X1.3543 Y1.0615 I-8.1399 J1.2116
G2 X1.3463 Y1.0104 I-8.1321 J1.2626
G2 X1.3378 Y0.9593 I-8.1241 J1.3137
G2 X1.3291 Y0.9083 I-8.1157 J1.3646
G2 X1.32 Y0.8574 I-8.1069 J1.4155
G2 X1.3107 Y0.8065 I-8.0979 J1.4664
G2 X1.301 Y0.7557 I-8.0885 J1.5172
G1 X1.3008 Y0.7549
G2 X1.2961 Y0.7308 I-8.0762 J1.5817
G3 X1.378 Y0.5942 I0.1165 J-0.023
G1 X1.3984 Y0.588
G1 X4.5475 Y-0.3694
G2 X4.552 Y-0.3754 I-0.0018 J-0.006
G2 X4.5517 Y-0.3772 I-0.0062 J0
G2 X4.5439 Y-0.3814 I-0.006 J0.0018
G1 X1.3948 Y0.576
G3 X1.3008 Y0.5652 I-0.0345 J-0.1136
G3 X1.2446 Y0.4891 I0.0595 J-0.1028
G1 X1.2445 Y0.4889
G2 X1.2358 Y0.4514 I-8.0227 J1.8337
G2 X1.2239 Y0.401 I-8.0135 J1.8734
G2 X1.2116 Y0.3507 I-8.0016 J1.9237
G2 X1.1991 Y0.3005 I-7.9893 J1.974
G2 X1.1862 Y0.2504 I-7.9768 J2.0242
G2 X1.173 Y0.2003 I-7.9639 J2.0743
G2 X1.1595 Y0.1504 I-7.9507 J2.1244
G2 X1.1456 Y0.1005 I-7.9371 J2.1743
G2 X1.1315 Y0.0507 I-7.9233 J2.2242
G2 X1.117 Y0.001 I-7.9092 J2.274
G2 X1.1023 Y-0.0486 I-7.8947 J2.3237
G2 X1.0872 Y-0.0981 I-7.8799 J2.3733
G2 X1.0718 Y-0.1475 I-7.8649 J2.4228
G2 X1.0561 Y-0.1968 I-7.8495 J2.4722
G2 X1.0401 Y-0.2461 I-7.8338 J2.5215
G2 X1.0237 Y-0.2952 I-7.8178 J2.5707
G2 X1.0071 Y-0.3442 I-7.8014 J2.6198
G2 X0.9902 Y-0.3931 I-7.7848 J2.6688
G2 X0.9729 Y-0.4419 I-7.7679 J2.7177
G2 X0.9554 Y-0.4906 I-7.7506 J2.7665
G2 X0.9375 Y-0.5392 I-7.7331 J2.8152
G2 X0.9193 Y-0.5876 I-7.7152 J2.8638
G2 X0.9009 Y-0.636 I-7.6971 J2.9123
G2 X0.8821 Y-0.6842 I-7.6786 J2.9606
G2 X0.863 Y-0.7323 I-7.6598 J3.0088
G2 X0.8436 Y-0.7803 I-7.6408 J3.0569
G2 X0.824 Y-0.8282 I-7.6214 J3.1049
G2 X0.804 Y-0.876 I-7.6017 J3.1528
G2 X0.7837 Y-0.9236 I-7.5817 J3.2005
G2 X0.7631 Y-0.9711 I-7.5614 J3.2481
G2 X0.7423 Y-1.0184 I-7.5409 J3.2956
G2 X0.7211 Y-1.0657 I-7.52 J3.343
G2 X0.6996 Y-1.1128 I-7.4988 J3.3902
G2 X0.6778 Y-1.1597 I-7.4774 J3.4373
G2 X0.6558 Y-1.2065 I-7.4556 J3.4843
G2 X0.6334 Y-1.2532 I-7.4335 J3.5311
G2 X0.6149 Y-1.2913 I-7.4107 J3.5787
G3 X0.6607 Y-1.4454 I0.1067 J-0.0522
G1 X4.0489 Y-3.47
G2 X4.0511 Y-3.4786 I-0.0032 J-0.0054
G2 X4.0425 Y-3.4808 I-0.0054 J0.0032
G1 X0.669 Y-1.465
G3 X0.576 Y-1.4526 I-0.0609 J-0.1019
G3 X0.5031 Y-1.5116 I0.0321 J-0.1143
G2 X0.4933 Y-1.5302 I-7.2857 J3.8269
G2 X0.4689 Y-1.5758 I-7.2711 J3.8545
G2 X0.4442 Y-1.6213 I-7.2467 J3.9002
G2 X0.4192 Y-1.6667 I-7.2221 J3.9456
G2 X0.394 Y-1.7119 I-7.1971 J3.991
G2 X0.3685 Y-1.7569 I-7.1719 J4.0362
G1 X0.3681 Y-1.7576
G2 X0.3423 Y-1.8024 I-7.1456 J4.0825
G2 X0.3162 Y-1.8471 I-7.1198 J4.1274
G2 X0.2898 Y-1.8917 I-7.0937 J4.172
G2 X0.2631 Y-1.936 I-7.0673 J4.2166
G2 X0.2362 Y-1.9802 I-7.0407 J4.2609
G2 X0.209 Y-2.0243 I-7.0137 J4.3051
G2 X0.1815 Y-2.0681 I-6.9865 J4.3491
G2 X0.1537 Y-2.1118 I-6.959 J4.393
G2 X0.1257 Y-2.1553 I-6.9313 J4.4366
G2 X0.0974 Y-2.1986 I-6.9032 J4.4801
G2 X0.0688 Y-2.2418 I-6.8749 J4.5234
G2 X0.0399 Y-2.2847 I-6.8463 J4.5666
G2 X0.0108 Y-2.3275 I-6.8175 J4.6095
G2 X-0.0186 Y-2.3701 I-6.7884 J4.6523
G2 X-0.0483 Y-2.4125 I-6.759 J4.6949
G2 X-0.0782 Y-2.4548 I-6.7293 J4.7373
G2 X-0.1084 Y-2.4968 I-6.6994 J4.7795
G2 X-0.1388 Y-2.5387 I-6.6692 J4.8216
G2 X-0.1696 Y-2.5803 I-6.6388 J4.8634
G2 X-0.2005 Y-2.6218 I-6.6081 J4.905
G2 X-0.2318 Y-2.663 I-6.5771 J4.9465
G2 X-0.2633 Y-2.7041 I-6.5459 J4.9878
G2 X-0.295 Y-2.745 I-6.5144 J5.0288
G2 X-0.327 Y-2.7856 I-6.4826 J5.0697
G2 X-0.3593 Y-2.8261 I-6.4506 J5.1103
G2 X-0.3918 Y-2.8664 I-6.4183 J5.1508
G2 X-0.4246 Y-2.9064 I-6.3858 J5.1911
G2 X-0.4576 Y-2.9463 I-6.3531 J5.2311
G2 X-0.4909 Y-2.9859 I-6.3201 J5.2709
G2 X-0.5244 Y-3.0254 I-6.2868 J5.3106
G2 X-0.5582 Y-3.0646 I-6.2533 J5.35
G2 X-0.5922 Y-3.1036 I-6.2195 J5.3892
G2 X-0.6265 Y-3.1424 I-6.1855 J5.4282
G2 X-0.661 Y-3.181 I-6.1512 J5.467
G2 X-0.6957 Y-3.2193 I-6.1167 J5.5056
G2 X-0.7307 Y-3.2575 I-6.082 J5.5439
G2 X-0.7659 Y-3.2954 I-6.047 J5.5821
G2 X-0.8014 Y-3.3331 I-6.0118 J5.62
G2 X-0.8371 Y-3.3706 I-5.9763 J5.6577
G2 X-0.873 Y-3.4078 I-5.9407 J5.6951
G2 X-0.9092 Y-3.4448 I-5.9047 J5.7324
G2 X-0.9456 Y-3.4816 I-5.8686 J5.7694
G2 X-0.9822 Y-3.5182 I-5.8322 J5.8062
G2 X-1.0191 Y-3.5545 I-5.7956 J5.8427
G2 X-1.0504 Y-3.585 I-5.7582 J5.8796
G1 X-1.0506 Y-3.5852
G3 X-1.0864 Y-3.6742 I0.0828 J-0.0851
G3 X-1.0448 Y-3.7606 I0.1187 J0.0039
G1 X2.436 Y-6.731
G2 X2.4382 Y-6.7357 I-0.0041 J-0.0047
G2 X2.4319 Y-6.742 I-0.0062 J0
G2 X2.4279 Y-6.7405 I0 J0.0062
G1 X0.73 Y-5.2916
G0 Z0.6
G0 Z0.6

(BORE2)
M5
T5 M6
M3 S1680
G0 X-6.5538 Y2.6883
G0 Z0.6
G0 Z0.04
G1 Z-0.015 F30.
G1 Y2.688 Z-0.0189
G1 Y2.6871 Z-0.0227
G1 Y2.6856 Z-0.0263
G1 Y2.6836 Z-0.0297
G1 Y2.681 Z-0.0327
G1 Y2.678 Z-0.0352
G1 Y2.6747 Z-0.0373
G1 Y2.6711 Z-0.0388
G1 Y2.6673 Z-0.0397
G1 Y2.6633 Z-0.04
G1 Y2.6508
G3 X-6.5304 Y2.6274 I0.0234 J0
G1 X-6.525 Y2.6277 Z-0.0407
G1 X-6.5197 Y2.6287 Z-0.0415
G1 X-6.5145 Y2.6302 Z-0.0422
G1 X-6.5095 Y2.6324 Z-0.0429
G1 X-6.5048 Y2.6351 Z-0.0436
G1 X-6.5004 Y2.6383 Z-0.0444
G1 X-6.4965 Y2.642 Z-0.0451
G1 X-6.4929 Y2.6461 Z-0.0458
G1 X-6.4899 Y2.6507 Z-0.0465
G1 X-6.4875 Y2.6555 Z-0.0473
G1 X-6.4856 Y2.6606 Z-0.048
G1 X-6.4843 Y2.6659 Z-0.0487
G1 X-6.4837 Y2.6713 Z-0.0494
G1 X-6.4836 Y2.6767 Z-0.0502
G1 X-6.4842 Y2.6821 Z-0.0509
G1 X-6.4854 Y2.6874 Z-0.0516
G1 X-6.4873 Y2.6925 Z-0.0523
G1 X-6.4897 Y2.6973 Z-0.0531
G1 X-6.4926 Y2.7019 Z-0.0538
G1 X-6.496 Y2.7061 Z-0.0545
G1 X-6.5 Y2.7099 Z-0.0552
G1 X-6.5043 Y2.7131 Z-0.056
G1 X-6.5089 Y2.7159 Z-0.0567
G1 X-6.5139 Y2.7181 Z-0.0574
G1 X-6.5191 Y2.7197 Z-0.0582
G1 X-6.5244 Y2.7207 Z-0.0589
G1 X-6.5298 Y2.7211 Z-0.0596
G1 X-6.5353 Y2.7209 Z-0.0603
G1 X-6.5406 Y2.72 Z-0.0611
G1 X-6.5458 Y2.7185 Z-0.0618
G1 X-6.5508 Y2.7164 Z-0.0625
G1 X-6.5556 Y2.7138 Z-0.0632
G1 X-6.56 Y2.7106 Z-0.064
G1 X-6.564 Y2.707 Z-0.0647
G1 X-6.5675 Y2.7029 Z-0.0654
G1 X-6.5706 Y2.6984 Z-0.0661
G1 X-6.5731 Y2.6936 Z-0.0669
G1 X-6.5751 Y2.6885 Z-0.0676
G1 X-6.5764 Y2.6832 Z-0.0683
G1 X-6.5771 Y2.6779 Z-0.069
G1 X-6.5772 Y2.6724 Z-0.0698
G1 X-6.5767 Y2.667 Z-0.0705
G1 X-6.5756 Y2.6617 Z-0.0712
G1 X-6.5738 Y2.6566 Z-0.072
G1 X-6.5715 Y2.6517 Z-0.0727
G1 X-6.5686 Y2.6471 Z-0.0734
G1 X-6.5652 Y2.6429 Z-0.0741
G1 X-6.5613 Y2.6391 Z-0.0749
G1 X-6.5571 Y2.6357 Z-0.0756
G1 X-6.5524 Y2.6329 Z-0.0763
G1 X-6.5475 Y2.6306 Z-0.077
G1 X-6.5423 Y2.629 Z-0.0778
G1 X-6.537 Y2.6279 Z-0.0785
G1 X-6.5316 Y2.6274 Z-0.0792
G1 X-6.5262 Y2.6276 Z-0.0799
G1 X-6.5208 Y2.6284 Z-0.0807
G1 X-6.5156 Y2.6298 Z-0.0814
G1 X-6.5105 Y2.6318 Z-0.0821
G1 X-6.5058 Y2.6344 Z-0.0828
G1 X-6.5013 Y2.6375 Z-0.0836
G1 X-6.4973 Y2.6412 Z-0.0843
G1 X-6.4937 Y2.6452 Z-0.085
G1 X-6.4906 Y2.6497 Z-0.0857
G1 X-6.488 Y2.6544 Z-0.0865
G1 X-6.486 Y2.6595 Z-0.0872
G1 X-6.4846 Y2.6647 Z-0.0879
G1 X-6.4838 Y2.6701 Z-0.0887
G1 X-6.4836 Y2.6755 Z-0.0894
G1 X-6.484 Y2.6809 Z-0.0901
G1 X-6.4851 Y2.6862 Z-0.0908
G1 X-6.4868 Y2.6914 Z-0.0916
G1 X-6.4891 Y2.6963 Z-0.0923
G1 X-6.4919 Y2.7009 Z-0.093
G1 X-6.4953 Y2.7052 Z-0.0937
G1 X-6.4991 Y2.7091 Z-0.0945
G1 X-6.5033 Y2.7125 Z-0.0952
G1 X-6.5079 Y2.7153 Z-0.0959
G1 X-6.5128 Y2.7177 Z-0.0966
G1 X-6.5179 Y2.7194 Z-0.0974
G1 X-6.5232 Y2.7206 Z-0.0981
G1 X-6.5286 Y2.7211 Z-0.0988
G1 X-6.5341 Y2.721 Z-0.0995
G1 X-6.5394 Y2.7202 Z-0.1003
G1 X-6.5447 Y2.7189 Z-0.101
G1 X-6.5498 Y2.7169 Z-0.1017
G1 X-6.5546 Y2.7144 Z-0.1024
G1 X-6.5591 Y2.7114 Z-0.1032
G1 X-6.5631 Y2.7078 Z-0.1039
G1 X-6.5668 Y2.7038 Z-0.1046
G1 X-6.57 Y2.6994 Z-0.1054
G1 X-6.5726 Y2.6946 Z-0.1061
G1 X-6.5747 Y2.6896 Z-0.1068
G1 X-6.5762 Y2.6844 Z-0.1075
G1 X-6.577 Y2.679 Z-0.1083
G1 X-6.5773 Y2.6736 Z-0.109
G1 X-6.5769 Y2.6682 Z-0.1097
G1 X-6.5759 Y2.6629 Z-0.1104
G1 X-6.5742 Y2.6577 Z-0.1112
G1 X-6.572 Y2.6527 Z-0.1119
G1 X-6.5693 Y2.6481 Z-0.1126
G1 X-6.566 Y2.6438 Z-0.1133
G1 X-6.5622 Y2.6399 Z-0.1141
G1 X-6.558 Y2.6364 Z-0.1148
G1 X-6.5535 Y2.6335 Z-0.1155
G1 X-6.5486 Y2.6311 Z-0.1162
G1 X-6.5435 Y2.6293 Z-0.117
G1 X-6.5382 Y2.6281 Z-0.1177
G1 X-6.5328 Y2.6275 Z-0.1184
G1 X-6.5274 Z-0.1191
G1 X-6.522 Y2.6282 Z-0.1199
G1 X-6.5167 Y2.6295 Z-0.1206
G1 X-6.5116 Y2.6314 Z-0.1213
G1 X-6.5068 Y2.6338 Z-0.1221
G1 X-6.5023 Y2.6368 Z-0.1228
G1 X-6.4981 Y2.6403 Z-0.1235
G1 X-6.4944 Y2.6443 Z-0.1242
G1 X-6.4912 Y2.6487 Z-0.125
G1 X-6.4885 Y2.6534 Z-0.1257
G1 X-6.4864 Y2.6584 Z-0.1264
G1 X-6.4848 Y2.6636 Z-0.1271
G1 X-6.4839 Y2.6689 Z-0.1279
G1 X-6.4836 Y2.6743 Z-0.1286
G1 X-6.4839 Y2.6797 Z-0.1293
G1 X-6.4848 Y2.6851 Z-0.13
G1 X-6.4864 Y2.6903 Z-0.1308
G1 X-6.4885 Y2.6953 Z-0.1315
G1 X-6.4912 Y2.7 Z-0.1322
G1 X-6.4945 Y2.7043 Z-0.1329
G1 X-6.4982 Y2.7083 Z-0.1337
G1 X-6.5023 Y2.7118 Z-0.1344
G1 X-6.5069 Y2.7148 Z-0.1351
G1 X-6.5117 Y2.7172 Z-0.1359
G1 X-6.5168 Y2.7191 Z-0.1366
G1 X-6.5221 Y2.7204 Z-0.1373
G1 X-6.5275 Y2.721 Z-0.138
G1 X-6.5329 Y2.7211 Z-0.1388
G1 X-6.5383 Y2.7205 Z-0.1395
G1 X-6.5436 Y2.7192 Z-0.1402
G1 X-6.5487 Y2.7174 Z-0.1409
G1 X-6.5535 Y2.715 Z-0.1417
G1 X-6.5581 Y2.7121 Z-0.1424
G1 X-6.5623 Y2.7086 Z-0.1431
G1 X-6.566 Y2.7047 Z-0.1438
G1 X-6.5693 Y2.7004 Z-0.1446
G1 X-6.5721 Y2.6957 Z-0.1453
G1 X-6.5743 Y2.6907 Z-0.146
G1 X-6.5759 Y2.6856 Z-0.1467
G1 X-6.5769 Y2.6802 Z-0.1475
G1 X-6.5773 Y2.6748 Z-0.1482
G1 X-6.577 Y2.6694 Z-0.1489
G1 X-6.5761 Y2.664 Z-0.1496
G1 X-6.5747 Y2.6588 Z-0.1504
G1 X-6.5726 Y2.6538 Z-0.1511
G1 X-6.5699 Y2.6491 Z-0.1518
G1 X-6.5667 Y2.6447 Z-0.1526
G1 X-6.5631 Y2.6407 Z-0.1533
G1 X-6.559 Y2.6371 Z-0.154
G1 X-6.5545 Y2.6341 Z-0.1547
G1 X-6.5497 Y2.6316 Z-0.1555
G1 X-6.5446 Y2.6296 Z-0.1562
G1 X-6.5394 Y2.6283 Z-0.1569
G1 X-6.534 Y2.6276 Z-0.1576
G1 X-6.5285 Y2.6275 Z-0.1584
G1 X-6.5231 Y2.628 Z-0.1591
G1 X-6.5178 Y2.6291 Z-0.1598
G1 X-6.5127 Y2.6309 Z-0.1605
G1 X-6.5078 Y2.6332 Z-0.1613
G1 X-6.5032 Y2.6361 Z-0.162
G1 X-6.499 Y2.6395 Z-0.1627
G1 X-6.4952 Y2.6434 Z-0.1634
G1 X-6.4919 Y2.6477 Z-0.1642
G1 X-6.489 Y2.6523 Z-0.1649
G1 X-6.4868 Y2.6572 Z-0.1656
G1 X-6.4851 Y2.6624 Z-0.1663
G1 X-6.484 Y2.6677 Z-0.1671
G1 X-6.4836 Y2.6731 Z-0.1678
G1 X-6.4838 Y2.6786 Z-0.1685
G1 X-6.4846 Y2.6839 Z-0.1693
G1 X-6.486 Y2.6892 Z-0.17
G1 X-6.488 Y2.6942 Z-0.1707
G1 X-6.4906 Y2.699 Z-0.1714
G1 X-6.4937 Y2.7034 Z-0.1722
G1 X-6.4973 Y2.7074 Z-0.1729
G1 X-6.5014 Y2.711 Z-0.1736
G1 X-6.5059 Y2.7142 Z-0.1743
G1 X-6.5106 Y2.7167 Z-0.1751
G1 X-6.5157 Y2.7187 Z-0.1758
G1 X-6.5209 Y2.7201 Z-0.1765
G1 X-6.5263 Y2.7209 Z-0.1772
G1 X-6.5317 Y2.7211 Z-0.178
G1 X-6.5371 Y2.7206 Z-0.1787
G1 X-6.5424 Y2.7196 Z-0.1794
G1 X-6.5476 Y2.7179 Z-0.1801
G1 X-6.5525 Y2.7156 Z-0.1809
G1 X-6.5571 Y2.7128 Z-0.1816
G1 X-6.5614 Y2.7094 Z-0.1823
G1 X-6.5653 Y2.7056 Z-0.183
G1 X-6.5687 Y2.7013 Z-0.1838
G1 X-6.5715 Y2.6967 Z-0.1845
G1 X-6.5739 Y2.6918 Z-0.1852
G1 X-6.5756 Y2.6867 Z-0.186
G1 X-6.5767 Y2.6814 Z-0.1867
G1 X-6.5772 Y2.676 Z-0.1874
G1 X-6.5771 Y2.6706 Z-0.1881
G1 X-6.5764 Y2.6652 Z-0.1889
G1 X-6.575 Y2.6599 Z-0.1896
G1 X-6.5731 Y2.6549 Z-0.1903
G1 X-6.5705 Y2.6501 Z-0.191
G1 X-6.5675 Y2.6456 Z-0.1918
G1 X-6.5639 Y2.6415 Z-0.1925
G1 X-6.5599 Y2.6379 Z-0.1932
G1 X-6.5555 Y2.6347 Z-0.1939
G1 X-6.5508 Y2.6321 Z-0.1947
G1 X-6.5457 Y2.63 Z-0.1954
G1 X-6.5405 Y2.6285 Z-0.1961
G1 X-6.5352 Y2.6277 Z-0.1968
G1 X-6.5297 Y2.6274 Z-0.1976
G1 X-6.5243 Y2.6278 Z-0.1983
G1 X-6.519 Y2.6288 Z-0.199
G1 X-6.5138 Y2.6305 Z-0.1998
G1 X-6.5089 Y2.6327 Z-0.2005
G1 X-6.5042 Y2.6354 Z-0.2012
G1 X-6.4999 Y2.6387 Z-0.2019
G1 X-6.496 Y2.6425 Z-0.2027
G1 X-6.4925 Y2.6467 Z-0.2034
G1 X-6.4896 Y2.6513 Z-0.2041
G1 X-6.4872 Y2.6561 Z-0.2048
G1 X-6.4854 Y2.6613 Z-0.2056
G1 X-6.4842 Y2.6666 Z-0.2063
G1 X-6.4836 Y2.6719 Z-0.207
G1 X-6.4837 Y2.6774 Z-0.2077
G1 X-6.4843 Y2.6828 Z-0.2085
G1 X-6.4856 Y2.688 Z-0.2092
G1 X-6.4875 Y2.6931 Z-0.2099
G1 X-6.49 Y2.6979 Z-0.2106
G1 X-6.493 Y2.7025 Z-0.2114
G1 X-6.4965 Y2.7066 Z-0.2121
G1 X-6.5005 Y2.7103 Z-0.2128
G1 X-6.5049 Y2.7135 Z-0.2135
G1 X-6.5096 Y2.7162 Z-0.2143
G1 X-6.5146 Y2.7183 Z-0.215
G1 X-6.5198 Y2.7199 Z-0.2157
G1 X-6.5251 Y2.7208 Z-0.2165
G1 X-6.5305 Y2.7211 Z-0.2172
G1 X-6.5359 Y2.7208 Z-0.2179
G1 X-6.5413 Y2.7198 Z-0.2186
G1 X-6.5465 Y2.7183 Z-0.2194
G1 X-6.5515 Y2.7161 Z-0.2201
G1 X-6.5562 Y2.7134 Z-0.2208
G1 X-6.5605 Y2.7102 Z-0.2215
G1 X-6.5645 Y2.7065 Z-0.2223
G1 X-6.568 Y2.7023 Z-0.223
G1 X-6.5709 Y2.6978 Z-0.2237
G1 X-6.5734 Y2.6929 Z-0.2244
G1 X-6.5753 Y2.6878 Z-0.2252
G1 X-6.5765 Y2.6826 Z-0.2259
G1 X-6.5772 Y2.6772 Z-0.2266
G1 Y2.6718 Z-0.2273
G1 X-6.5766 Y2.6664 Z-0.2281
G1 X-6.5754 Y2.6611 Z-0.2288
G1 X-6.5735 Y2.656 Z-0.2295
G1 X-6.5711 Y2.6511 Z-0.2302
G1 X-6.5682 Y2.6465 Z-0.231
G1 X-6.5647 Y2.6424 Z-0.2317
G1 X-6.5608 Y2.6386 Z-0.2324
G1 X-6.5565 Y2.6353 Z-0.2332
G1 X-6.5518 Y2.6326 Z-0.2339
G1 X-6.5468 Y2.6304 Z-0.2346
G1 X-6.5417 Y2.6288 Z-0.2353
G1 X-6.5363 Y2.6278 Z-0.2361
G1 X-6.5309 Y2.6274 Z-0.2368
G1 X-6.5255 Y2.6277 Z-0.2375
G1 X-6.5201 Y2.6286 Z-0.2382
G1 X-6.5149 Y2.6301 Z-0.239
G1 X-6.5099 Y2.6321 Z-0.2397
G1 X-6.5052 Y2.6348 Z-0.2404
G1 X-6.5008 Y2.638 Z-0.2411
G1 X-6.4968 Y2.6416 Z-0.2419
G1 X-6.4932 Y2.6458 Z-0.2426
G1 X-6.4902 Y2.6502 Z-0.2433
G1 X-6.4877 Y2.6551 Z-0.244
G1 X-6.4858 Y2.6601 Z-0.2448
G1 X-6.4844 Y2.6654 Z-0.2455
G1 X-6.4837 Y2.6708 Z-0.2462
G1 X-6.4836 Y2.6762 Z-0.247
G1 X-6.4841 Y2.6816 Z-0.2477
G1 X-6.4853 Y2.6869 Z-0.2484
G1 X-6.4871 Y2.692 Z-0.2491
G1 X-6.4894 Y2.6969 Z-0.2499
G1 X-6.4923 Y2.7015 Z-0.2506
G1 X-6.4957 Y2.7057 Z-0.2513
G1 X-6.4996 Y2.7095 Z-0.252
G1 X-6.5039 Y2.7129 Z-0.2528
G1 X-6.5085 Y2.7157 Z-0.2535
G1 X-6.5134 Y2.7179 Z-0.2542
G1 X-6.5186 Y2.7196 Z-0.2549
G1 X-6.5239 Y2.7207 Z-0.2557
G1 X-6.5293 Y2.7211 Z-0.2564
G1 X-6.5348 Y2.7209 Z-0.2571
G1 X-6.5401 Y2.7201 Z-0.2578
G1 X-6.5454 Y2.7187 Z-0.2586
G1 X-6.5504 Y2.7166 Z-0.2593
G1 X-6.5552 Y2.7141 Z-0.26
G1 X-6.5596 Y2.7109 Z-0.2607
G1 X-6.5636 Y2.7073 Z-0.2615
G1 X-6.5672 Y2.7032 Z-0.2622
G1 X-6.5703 Y2.6988 Z-0.2629
G1 X-6.5729 Y2.694 Z-0.2637
G1 X-6.5749 Y2.689 Z-0.2644
G1 X-6.5763 Y2.6837 Z-0.2651
G1 X-6.5771 Y2.6784 Z-0.2658
G1 X-6.5773 Y2.6729 Z-0.2666
G1 X-6.5768 Y2.6675 Z-0.2673
G1 X-6.5757 Y2.6622 Z-0.268
G1 X-6.574 Y2.6571 Z-0.2687
G1 X-6.5717 Y2.6521 Z-0.2695
G1 X-6.5689 Y2.6475 Z-0.2702
G1 X-6.5655 Y2.6432 Z-0.2709
G1 X-6.5617 Y2.6394 Z-0.2716
G1 X-6.5575 Y2.636 Z-0.2724
G1 X-6.5529 Y2.6331 Z-0.2731
G1 X-6.548 Y2.6308 Z-0.2738
G1 X-6.5428 Y2.6291 Z-0.2745
G1 X-6.5375 Y2.628 Z-0.2753
G1 X-6.5321 Y2.6274 Z-0.276
G1 X-6.5267 Y2.6276 Z-0.2767
G1 X-6.5213 Y2.6283 Z-0.2774
G1 X-6.516 Y2.6297 Z-0.2782
G1 X-6.511 Y2.6316 Z-0.2789
G1 X-6.5062 Y2.6342 Z-0.2796
G1 X-6.5017 Y2.6372 Z-0.2804
G1 X-6.4976 Y2.6408 Z-0.2811
G1 X-6.494 Y2.6448 Z-0.2818
G1 X-6.4908 Y2.6492 Z-0.2825
G1 X-6.4882 Y2.654 Z-0.2833
G1 X-6.4861 Y2.659 Z-0.284
G1 X-6.4847 Y2.6642 Z-0.2847
G1 X-6.4838 Y2.6696 Z-0.2854
G1 X-6.4836 Y2.675 Z-0.2862
G1 X-6.484 Y2.6804 Z-0.2869
G1 X-6.485 Y2.6857 Z-0.2876
G1 X-6.4866 Y2.6909 Z-0.2883
G1 X-6.4889 Y2.6959 Z-0.2891
G1 X-6.4916 Y2.7005 Z-0.2898
G1 X-6.4949 Y2.7048 Z-0.2905
G1 X-6.4987 Y2.7087 Z-0.2912
G1 X-6.5029 Y2.7122 Z-0.292
G1 X-6.5075 Y2.7151 Z-0.2927
G1 X-6.5123 Y2.7175 Z-0.2934
G1 X-6.5175 Y2.7193 Z-0.2941
G1 X-6.5228 Y2.7205 Z-0.2949
G1 X-6.5282 Y2.7211 Z-0.2956
G1 X-6.5336 Y2.721 Z-0.2963
G1 X-6.539 Y2.7203 Z-0.2971
G1 X-6.5442 Y2.719 Z-0.2978
G1 X-6.5493 Y2.7171 Z-0.2985
G1 X-6.5541 Y2.7147 Z-0.2992
G1 X-6.5587 Y2.7117 Z-0.3
G1 X-6.5628 Y2.7081 Z-0.3007
G1 X-6.5665 Y2.7042 Z-0.3014
G1 X-6.5697 Y2.6998 Z-0.3021
G1 X-6.5724 Y2.6951 Z-0.3029
G1 X-6.5745 Y2.6901 Z-0.3036
G1 X-6.5761 Y2.6849 Z-0.3043
G1 X-6.577 Y2.6795 Z-0.305
G1 X-6.5773 Y2.6741 Z-0.3058
G1 X-6.5769 Y2.6687 Z-0.3065
G1 X-6.576 Y2.6634 Z-0.3072
G1 X-6.5744 Y2.6582 Z-0.3079
G1 X-6.5723 Y2.6532 Z-0.3087
G1 X-6.5695 Y2.6485 Z-0.3094
G1 X-6.5663 Y2.6441 Z-0.3101
G1 X-6.5626 Y2.6402 Z-0.3109
G1 X-6.5584 Y2.6367 Z-0.3116
G1 X-6.5539 Y2.6337 Z-0.3123
G1 X-6.549 Y2.6313 Z-0.313
G1 X-6.5439 Y2.6294 Z-0.3138
G1 X-6.5387 Y2.6281 Z-0.3145
G1 X-6.5333 Y2.6275 Z-0.3152
G1 X-6.5279 Z-0.3159
G1 X-6.5225 Y2.6281 Z-0.3167
G1 X-6.5172 Y2.6293 Z-0.3174
G1 X-6.5121 Y2.6312 Z-0.3181
G1 X-6.5072 Y2.6336 Z-0.3188
G1 X-6.5027 Y2.6365 Z-0.3196
G1 X-6.4985 Y2.64 Z-0.3203
G1 X-6.4947 Y2.6439 Z-0.321
G1 X-6.4915 Y2.6482 Z-0.3217
G1 X-6.4887 Y2.6529 Z-0.3225
G1 X-6.4865 Y2.6579 Z-0.3232
G1 X-6.4849 Y2.6631 Z-0.3239
G1 X-6.4839 Y2.6684 Z-0.3246
G1 X-6.4836 Y2.6738 Z-0.3254
G1 X-6.4838 Y2.6792 Z-0.3261
G1 X-6.4847 Y2.6846 Z-0.3268
G1 X-6.4862 Y2.6898 Z-0.3276
G1 X-6.4883 Y2.6948 Z-0.3283
G1 X-6.491 Y2.6995 Z-0.329
G1 X-6.4942 Y2.7039 Z-0.3297
G1 X-6.4978 Y2.7079 Z-0.3305
G1 X-6.5019 Y2.7115 Z-0.3312
G1 X-6.5064 Y2.7145 Z-0.3319
G1 X-6.5113 Y2.717 Z-0.3326
G1 X-6.5163 Y2.7189 Z-0.3334
G1 X-6.5216 Y2.7203 Z-0.3341
G1 X-6.527 Y2.721 Z-0.3348
G1 X-6.5324 Y2.7211 Z-0.3355
G1 X-6.5378 Y2.7205 Z-0.3363
G1 X-6.5431 Y2.7194 Z-0.337
G1 X-6.5482 Y2.7176 Z-0.3377
G1 X-6.5531 Y2.7153 Z-0.3384
G1 X-6.5577 Y2.7124 Z-0.3392
G1 X-6.5619 Y2.7089 Z-0.3399
G1 X-6.5657 Y2.7051 Z-0.3406
G1 X-6.569 Y2.7008 Z-0.3413
G1 X-6.5719 Y2.6961 Z-0.3421
G1 X-6.5741 Y2.6912 Z-0.3428
G1 X-6.5758 Y2.686 Z-0.3435
G1 X-6.5768 Y2.6807 Z-0.3443
G1 X-6.5773 Y2.6753 Z-0.345
G1 X-6.5771 Y2.6699 Z-0.3457
G1 X-6.5762 Y2.6645 Z-0.3464
G1 X-6.5748 Y2.6593 Z-0.3472
G1 X-6.5728 Y2.6543 Z-0.3479
G1 X-6.5702 Y2.6495 Z-0.3486
G1 X-6.5671 Y2.6451 Z-0.3493
G1 X-6.5634 Y2.641 Z-0.3501
G1 X-6.5594 Y2.6374 Z-0.3508
G1 X-6.5549 Y2.6343 Z-0.3515
G1 X-6.5501 Y2.6318 Z-0.3522
G1 X-6.5451 Y2.6298 Z-0.353
G1 X-6.5398 Y2.6284 Z-0.3537
G1 X-6.5345 Y2.6276 Z-0.3544
G1 X-6.529 Y2.6274 Z-0.3551
G1 X-6.5236 Y2.6279 Z-0.3559
G1 X-6.5183 Y2.629 Z-0.3566
G1 X-6.5132 Y2.6307 Z-0.3573
G1 X-6.5082 Y2.633 Z-0.358
G1 X-6.5036 Y2.6358 Z-0.3588
G1 X-6.4994 Y2.6392 Z-0.3595
G1 X-6.4955 Y2.643 Z-0.3602
G1 X-6.4921 Y2.6473 Z-0.361
G1 X-6.4893 Y2.6519 Z-0.3617
G1 X-6.487 Y2.6568 Z-0.3624
G1 X-6.4852 Y2.6619 Z-0.3631
G1 X-6.4841 Y2.6672 Z-0.3639
G1 X-6.4836 Y2.6726 Z-0.3646
G1 X-6.4837 Y2.6781 Z-0.3653
G1 X-6.4845 Y2.6834 Z-0.366
G1 X-6.4858 Y2.6887 Z-0.3668
G1 X-6.4878 Y2.6937 Z-0.3675
G1 X-6.4904 Y2.6985 Z-0.3682
G1 X-6.4934 Y2.703 Z-0.3689
G1 X-6.497 Y2.7071 Z-0.3697
G1 X-6.501 Y2.7107 Z-0.3704
G1 X-6.5054 Y2.7139 Z-0.3711
G1 X-6.5102 Y2.7165 Z-0.3718
G1 X-6.5152 Y2.7186 Z-0.3726
G1 X-6.5204 Y2.72 Z-0.3733
G1 X-6.5258 Y2.7209 Z-0.374
G1 X-6.5312 Y2.7211 Z-0.3748
G1 X-6.5366 Y2.7207 Z-0.3755
G1 X-6.5419 Y2.7197 Z-0.3762
G1 X-6.5471 Y2.718 Z-0.3769
G1 X-6.5521 Y2.7158 Z-0.3777
G1 X-6.5567 Y2.713 Z-0.3784
G1 X-6.561 Y2.7097 Z-0.3791
G1 X-6.5649 Y2.706 Z-0.3798
G1 X-6.5684 Y2.7017 Z-0.3806
G1 X-6.5713 Y2.6972 Z-0.3813
G1 X-6.5737 Y2.6923 Z-0.382
G1 X-6.5755 Y2.6872 Z-0.3827
G1 X-6.5766 Y2.6819 Z-0.3835
G1 X-6.5772 Y2.6765 Z-0.3842
G1 Y2.6711 Z-0.3849
G1 X-6.5765 Y2.6657 Z-0.3856
G1 X-6.5752 Y2.6604 Z-0.3864
G1 X-6.5733 Y2.6553 Z-0.3871
G1 X-6.5708 Y2.6505 Z-0.3878
G1 X-6.5678 Y2.646 Z-0.3885
G1 X-6.5643 Y2.6419 Z-0.3893
G1 X-6.5603 Y2.6382 Z-0.39
G1 X-6.5559 Y2.635 Z-0.3907
G1 X-6.5512 Y2.6323 Z-0.3915
G1 X-6.5462 Y2.6302 Z-0.3922
G1 X-6.541 Y2.6286 Z-0.3929
G1 X-6.5356 Y2.6277 Z-0.3936
G1 X-6.5302 Y2.6274 Z-0.3944
G1 X-6.5248 Y2.6278 Z-0.3951
G1 X-6.5195 Y2.6287 Z-0.3958
G1 X-6.5143 Y2.6303 Z-0.3965
G1 X-6.5093 Y2.6324 Z-0.3973
G1 X-6.5046 Y2.6352 Z-0.398
G1 X-6.5003 Y2.6384 Z-0.3987
G1 X-6.4963 Y2.6421 Z-0.3994
G1 X-6.4928 Y2.6463 Z-0.4002
G1 X-6.4899 Y2.6508 Z-0.4009
G1 X-6.4874 Y2.6557 Z-0.4016
G1 X-6.4856 Y2.6608 Z-0.4023
G1 X-6.4843 Y2.6661 Z-0.4031
G1 X-6.4837 Y2.6715 Z-0.4038
G1 X-6.4836 Y2.6769 Z-0.4045
G1 X-6.4843 Y2.6823 Z-0.4052
G1 X-6.4855 Y2.6876 Z-0.406
G1 X-6.4873 Y2.6927 Z-0.4067
G1 X-6.4897 Y2.6975 Z-0.4074
G1 X-6.4927 Y2.7021 Z-0.4082
G1 X-6.4962 Y2.7062 Z-0.4089
G1 X-6.5001 Y2.71 Z-0.4096
G1 X-6.5044 Y2.7133 Z-0.4103
G1 X-6.5091 Y2.716 Z-0.4111
G1 X-6.5141 Y2.7182 Z-0.4118
G1 X-6.5193 Y2.7198 Z-0.4125
G1 X-6.5246 Y2.7208 Z-0.4132
G1 X-6.53 Y2.7211 Z-0.414
G1 X-6.5354 Y2.7208 Z-0.4147
G1 X-6.5408 Y2.72 Z-0.4154
G1 X-6.546 Y2.7184 Z-0.4161
G1 X-6.551 Y2.7163 Z-0.4169
G1 X-6.5557 Y2.7137 Z-0.4176
G1 X-6.5601 Y2.7105 Z-0.4183
G1 X-6.5641 Y2.7068 Z-0.419
G1 X-6.5677 Y2.7027 Z-0.4198
G1 X-6.5707 Y2.6982 Z-0.4205
G1 X-6.5732 Y2.6934 Z-0.4212
G1 X-6.5751 Y2.6883 Z-0.422
G1 X-6.5764 Y2.6831 Z-0.4227
G1 X-6.5771 Y2.6777 Z-0.4234
G1 X-6.5772 Y2.6722 Z-0.4241
G1 X-6.5767 Y2.6668 Z-0.4249
G1 X-6.5755 Y2.6615 Z-0.4256
G1 X-6.5737 Y2.6564 Z-0.4263
G1 X-6.5714 Y2.6515 Z-0.427
G1 X-6.5685 Y2.6469 Z-0.4278
G1 X-6.5651 Y2.6427 Z-0.4285
G1 X-6.5612 Y2.6389 Z-0.4292
G1 X-6.5569 Y2.6356 Z-0.4299
G1 X-6.5523 Y2.6328 Z-0.4307
G1 X-6.5473 Y2.6306 Z-0.4314
G1 X-6.5421 Y2.6289 Z-0.4321
G1 X-6.5368 Y2.6279 Z-0.4328
G1 X-6.5314 Y2.6274 Z-0.4336
G1 X-6.526 Y2.6276 Z-0.4343
G1 X-6.5206 Y2.6285 Z-0.435
G1 X-6.5154 Y2.6299 Z-0.4357
G1 X-6.5104 Y2.6319 Z-0.4365
G1 X-6.5056 Y2.6345 Z-0.4372
G1 X-6.5012 Y2.6377 Z-0.4379
G1 X-6.4971 Y2.6413 Z-0.4387
G1 X-6.4936 Y2.6454 Z-0.4394
G1 X-6.4905 Y2.6498 Z-0.4401
G1 X-6.4879 Y2.6546 Z-0.4408
G1 X-6.4859 Y2.6597 Z-0.4416
G1 X-6.4845 Y2.6649 Z-0.4423
G1 X-6.4837 Y2.6703 Z-0.443
G1 X-6.4836 Y2.6757 Z-0.4437
G1 X-6.4841 Y2.6811 Z-0.4445
G1 X-6.4852 Y2.6864 Z-0.4452
G1 X-6.4869 Y2.6916 Z-0.4459
G1 X-6.4892 Y2.6965 Z-0.4466
G1 X-6.492 Y2.7011 Z-0.4474
G1 X-6.4954 Y2.7054 Z-0.4481
G1 X-6.4992 Y2.7092 Z-0.4488
G1 X-6.5035 Y2.7126 Z-0.4495
G1 X-6.5081 Y2.7154 Z-0.4503
G1 X-6.513 Y2.7177 Z-0.451
G1 X-6.5181 Y2.7195 Z-0.4517
G1 X-6.5234 Y2.7206 Z-0.4524
G1 X-6.5288 Y2.7211 Z-0.4532
G1 X-6.5343 Y2.721 Z-0.4539
G1 X-6.5396 Y2.7202 Z-0.4546
G1 X-6.5449 Y2.7188 Z-0.4554
G1 X-6.5499 Y2.7169 Z-0.4561
G1 X-6.5547 Y2.7143 Z-0.4568
G1 X-6.5592 Y2.7112 Z-0.4575
G1 X-6.5633 Y2.7077 Z-0.4583
G1 X-6.5669 Y2.7036 Z-0.459
G1 X-6.5701 Y2.6992 Z-0.4597
G1 X-6.5727 Y2.6945 Z-0.4604
G1 X-6.5747 Y2.6894 Z-0.4612
G1 X-6.5762 Y2.6842 Z-0.4619
G1 X-6.577 Y2.6789 Z-0.4626
G1 X-6.5773 Y2.6734 Z-0.4633
G1 X-6.5769 Y2.668 Z-0.4641
G1 X-6.5758 Y2.6627 Z-0.4648
G1 X-6.5742 Y2.6575 Z-0.4655
G1 X-6.5719 Y2.6526 Z-0.4662
G1 X-6.5692 Y2.6479 Z-0.467
G1 X-6.5659 Y2.6436 Z-0.4677
G1 X-6.5621 Y2.6397 Z-0.4684
G1 X-6.5579 Y2.6363 Z-0.4691
G1 X-6.5533 Y2.6334 Z-0.4699
G1 X-6.5484 Y2.631 Z-0.4706
G1 X-6.5433 Y2.6292 Z-0.4713
G1 X-6.538 Y2.628 Z-0.4721
G1 X-6.5326 Y2.6275 Z-0.4728
G1 X-6.5272 Z-0.4735
G1 X-6.5218 Y2.6282 Z-0.4742
G1 X-6.5165 Y2.6295 Z-0.475
G1 X-6.5114 Y2.6314 Z-0.4757
G1 X-6.5066 Y2.6339 Z-0.4764
G1 X-6.5021 Y2.6369 Z-0.4771
G1 X-6.498 Y2.6405 Z-0.4779
G1 X-6.4943 Y2.6444 Z-0.4786
G1 X-6.4911 Y2.6488 Z-0.4793
G1 X-6.4884 Y2.6535 Z-0.48
G1 X-6.4863 Y2.6585 Z-0.4808
G1 X-6.4848 Y2.6637 Z-0.4815
G1 X-6.4839 Y2.6691 Z-0.4822
G1 X-6.4836 Y2.6745 Z-0.4829
G1 X-6.4839 Y2.6799 Z-0.4837
G1 X-6.4849 Y2.6853 Z-0.4844
G1 X-6.4865 Y2.6905 Z-0.4851
G1 X-6.4886 Y2.6954 Z-0.4859
G1 X-6.4914 Y2.7001 Z-0.4866
G1 X-6.4946 Y2.7045 Z-0.4873
G1 X-6.4983 Y2.7084 Z-0.488
G1 X-6.5025 Y2.7119 Z-0.4888
G1 X-6.507 Y2.7149 Z-0.4895
G1 X-6.5119 Y2.7173 Z-0.4902
G1 X-6.517 Y2.7191 Z-0.4909
G1 X-6.5223 Y2.7204 Z-0.4917
G1 X-6.5277 Y2.721 Z-0.4924
G1 X-6.5331 Z-0.4931
G1 X-6.5385 Y2.7204 Z-0.4938
G1 X-6.5438 Y2.7192 Z-0.4946
G1 X-6.5489 Y2.7173 Z-0.4953
G1 X-6.5537 Y2.7149 Z-0.496
G1 X-6.5583 Y2.7119 Z-0.4967
G1 X-6.5624 Y2.7085 Z-0.4975
G1 X-6.5662 Y2.7045 Z-0.4982
G1 X-6.5694 Y2.7002 Z-0.4989
G1 X-6.5722 Y2.6955 Z-0.4996
G1 X-6.5743 Y2.6906 Z-0.5004
G1 X-6.5759 Y2.6854 Z-0.5011
G1 X-6.5769 Y2.68 Z-0.5018
G1 X-6.5773 Y2.6746 Z-0.5026
G1 X-6.577 Y2.6692 Z-0.5033
G1 X-6.5761 Y2.6638 Z-0.504
G1 X-6.5746 Y2.6586 Z-0.5047
G1 X-6.5725 Y2.6536 Z-0.5055
G1 X-6.5698 Y2.6489 Z-0.5062
G1 X-6.5666 Y2.6445 Z-0.5069
G1 X-6.5629 Y2.6405 Z-0.5076
G1 X-6.5588 Y2.637 Z-0.5084
G1 X-6.5543 Y2.634 Z-0.5091
G1 X-6.5495 Y2.6315 Z-0.5098
G1 X-6.5444 Y2.6296 Z-0.5105
G1 X-6.5392 Y2.6282 Z-0.5113
G1 X-6.5338 Y2.6275 Z-0.512
G1 X-6.5284 Z-0.5127
G1 X-6.523 Y2.628 Z-0.5134
G1 X-6.5177 Y2.6292 Z-0.5142
G1 X-6.5125 Y2.631 Z-0.5149
G1 X-6.5076 Y2.6333 Z-0.5156
G1 X-6.5031 Y2.6362 Z-0.5163
G1 X-6.4988 Y2.6397 Z-0.5171
G1 X-6.4951 Y2.6435 Z-0.5178
G1 X-6.4917 Y2.6478 Z-0.5185
G1 X-6.4889 Y2.6525 Z-0.5193
G1 X-6.4867 Y2.6574 Z-0.52
G1 X-6.4851 Y2.6626 Z-0.5207
G1 X-6.484 Y2.6679 Z-0.5214
G1 X-6.4836 Y2.6733 Z-0.5222
G1 X-6.4838 Y2.6787 Z-0.5229
G1 X-6.4846 Y2.6841 Z-0.5236
G1 X-6.4861 Y2.6893 Z-0.5243
G1 X-6.4881 Y2.6944 Z-0.5251
G1 X-6.4907 Y2.6991 Z-0.5258
G1 X-6.4939 Y2.7036 Z-0.5265
G1 X-6.4975 Y2.7076 Z-0.5272
G1 X-6.5016 Y2.7112 Z-0.528
G1 X-6.506 Y2.7143 Z-0.5287
G1 X-6.5108 Y2.7168 Z-0.5294
G1 X-6.5159 Y2.7188 Z-0.5301
G1 X-6.5211 Y2.7202 Z-0.5309
G1 X-6.5265 Y2.7209 Z-0.5316
G1 X-6.5319 Y2.7211 Z-0.5323
G1 X-6.5373 Y2.7206 Z-0.533
G1 X-6.5426 Y2.7195 Z-0.5338
G1 X-6.5478 Y2.7178 Z-0.5345
G1 X-6.5527 Y2.7155 Z-0.5352
G1 X-6.5573 Y2.7126 Z-0.536
G1 X-6.5616 Y2.7093 Z-0.5367
G1 X-6.5654 Y2.7054 Z-0.5374
G1 X-6.5688 Y2.7012 Z-0.5381
G1 X-6.5716 Y2.6966 Z-0.5389
G1 X-6.5739 Y2.6917 Z-0.5396
G1 X-6.5756 Y2.6865 Z-0.5403
G1 X-6.5768 Y2.6812 Z-0.541
G1 X-6.5772 Y2.6758 Z-0.5418
G1 X-6.5771 Y2.6704 Z-0.5425
G1 X-6.5763 Y2.665 Z-0.5432
G1 X-6.575 Y2.6598 Z-0.5439
G1 X-6.573 Y2.6547 Z-0.5447
G1 X-6.5704 Y2.6499 Z-0.5454
G1 X-6.5674 Y2.6454 Z-0.5461
G1 X-6.5638 Y2.6414 Z-0.5468
G1 X-6.5598 Y2.6377 Z-0.5476
G1 X-6.5553 Y2.6346 Z-0.5483
G1 X-6.5506 Y2.632 Z-0.549
G1 X-6.5455 Y2.6299 Z-0.5498
G1 X-6.5403 Y2.6285 Z-0.5505
G1 X-6.535 Y2.6276 Z-0.5512
G1 X-6.5295 Y2.6274 Z-0.5519
G1 X-6.5241 Y2.6278 Z-0.5527
G1 X-6.5188 Y2.6289 Z-0.5534
G1 X-6.5136 Y2.6305 Z-0.5541
G1 X-6.5087 Y2.6328 Z-0.5548
G1 X-6.504 Y2.6356 Z-0.5556
G1 X-6.4997 Y2.6389 Z-0.5563
G1 X-6.4958 Y2.6427 Z-0.557
G1 X-6.4924 Y2.6469 Z-0.5577
G1 X-6.4895 Y2.6514 Z-0.5585
G1 X-6.4871 Y2.6563 Z-0.5592
G1 X-6.4854 Y2.6614 Z-0.5599
G1 X-6.4842 Y2.6667 Z-0.5606
G1 X-6.4836 Y2.6721 Z-0.5614
G1 X-6.4837 Y2.6776 Z-0.5621
G1 X-6.4844 Y2.6829 Z-0.5628
G1 X-6.4857 Y2.6882 Z-0.5635
G1 X-6.4876 Y2.6933 Z-0.5643
G1 X-6.4901 Y2.6981 Z-0.565
G1 X-6.4931 Y2.7026 Z-0.5657
G1 X-6.4967 Y2.7067 Z-0.5665
G1 X-6.5006 Y2.7104 Z-0.5672
G1 X-6.505 Y2.7136 Z-0.5679
G1 X-6.5097 Y2.7163 Z-0.5686
G1 X-6.5147 Y2.7184 Z-0.5694
G1 X-6.5199 Y2.7199 Z-0.5701
G1 X-6.5253 Y2.7208 Z-0.5708
G1 X-6.5307 Y2.7211 Z-0.5715
G1 X-6.5361 Y2.7208 Z-0.5723
G1 X-6.5415 Y2.7198 Z-0.573
G1 X-6.5467 Y2.7182 Z-0.5737
G1 X-6.5516 Y2.716 Z-0.5744
G1 X-6.5563 Y2.7133 Z-0.5752
G1 X-6.5607 Y2.7101 Z-0.5759
G1 X-6.5646 Y2.7063 Z-0.5766
G1 X-6.5681 Y2.7021 Z-0.5773
G1 X-6.571 Y2.6976 Z-0.5781
G1 X-6.5735 Y2.6928 Z-0.5788
G1 X-6.5753 Y2.6877 Z-0.5795
G1 X-6.5766 Y2.6824 Z-0.5802
G1 X-6.5772 Y2.677 Z-0.581
G1 Y2.6716 Z-0.5817
G1 X-6.5766 Y2.6662 Z-0.5824
G1 X-6.5753 Y2.6609 Z-0.5832
G1 X-6.5735 Y2.6558 Z-0.5839
G1 X-6.571 Y2.6509 Z-0.5846
G1 X-6.5681 Y2.6464 Z-0.5853
G1 X-6.5646 Y2.6422 Z-0.5861
G1 X-6.5607 Y2.6385 Z-0.5868
G1 X-6.5563 Y2.6352 Z-0.5875
G1 X-6.5516 Y2.6325 Z-0.5882
G1 X-6.5467 Y2.6303 Z-0.589
G1 X-6.5415 Y2.6287 Z-0.5897
G1 X-6.5361 Y2.6278 Z-0.5904
G1 X-6.5307 Y2.6274 Z-0.5911
G1 X-6.5253 Y2.6277 Z-0.5919
G1 X-6.52 Y2.6286 Z-0.5926
G1 X-6.5147 Y2.6301 Z-0.5933
G1 X-6.5097 Y2.6322 Z-0.594
G1 X-6.505 Y2.6349 Z-0.5948
G1 X-6.5006 Y2.6381 Z-0.5955
G1 X-6.4967 Y2.6418 Z-0.5962
G1 X-6.4931 Y2.6459 Z-0.597
G1 X-6.4901 Y2.6504 Z-0.5977
G1 X-6.4876 Y2.6552 Z-0.5984
G1 X-6.4857 Y2.6603 Z-0.5991
G1 X-6.4844 Y2.6656 Z-0.5999
G1 X-6.4837 Y2.671 Z-0.6006
G1 X-6.4836 Y2.6764 Z-0.6013
G1 X-6.4842 Y2.6818 Z-0.602
G1 X-6.4854 Y2.6871 Z-0.6028
G1 X-6.4871 Y2.6922 Z-0.6035
G1 X-6.4895 Y2.6971 Z-0.6042
G1 X-6.4924 Y2.7017 Z-0.6049
G1 X-6.4958 Y2.7059 Z-0.6057
G1 X-6.4997 Y2.7097 Z-0.6064
G1 X-6.504 Y2.713 Z-0.6071
G1 X-6.5087 Y2.7158 Z-0.6078
G1 X-6.5136 Y2.718 Z-0.6086
G1 X-6.5188 Y2.7197 Z-0.6093
G1 X-6.5241 Y2.7207 Z-0.61
G1 X-6.5295 Y2.7211 Z-0.6107
G1 X-6.535 Y2.7209 Z-0.6115
G1 X-6.5403 Y2.7201 Z-0.6122
G1 X-6.5455 Y2.7186 Z-0.6129
G1 X-6.5506 Y2.7166 Z-0.6137
G1 X-6.5553 Y2.7139 Z-0.6144
G1 X-6.5597 Y2.7108 Z-0.6151
G1 X-6.5638 Y2.7072 Z-0.6158
G1 X-6.5674 Y2.7031 Z-0.6166
G1 X-6.5704 Y2.6986 Z-0.6173
G1 X-6.573 Y2.6938 Z-0.618
G1 X-6.575 Y2.6888 Z-0.6187
G1 X-6.5763 Y2.6835 Z-0.6195
G1 X-6.5771 Y2.6782 Z-0.6202
G1 X-6.5772 Y2.6727 Z-0.6209
G1 X-6.5768 Y2.6673 Z-0.6216
G1 X-6.5756 Y2.662 Z-0.6224
G1 X-6.5739 Y2.6569 Z-0.6231
G1 X-6.5716 Y2.652 Z-0.6238
G1 X-6.5688 Y2.6473 Z-0.6245
G1 X-6.5654 Y2.6431 Z-0.6253
G1 X-6.5616 Y2.6393 Z-0.626
G1 X-6.5573 Y2.6359 Z-0.6267
G1 X-6.5527 Y2.633 Z-0.6274
G1 X-6.5478 Y2.6307 Z-0.6282
G1 X-6.5426 Y2.629 Z-0.6289
G1 X-6.5373 Y2.6279 Z-0.6296
G1 X-6.5319 Y2.6274 Z-0.6304
G1 X-6.5265 Y2.6276 Z-0.6311
G1 X-6.5211 Y2.6284 Z-0.6318
G1 X-6.5159 Y2.6297 Z-0.6325
G1 X-6.5108 Y2.6317 Z-0.6333
G1 X-6.506 Y2.6343 Z-0.634
G1 X-6.5016 Y2.6374 Z-0.6347
G1 X-6.4975 Y2.6409 Z-0.6354
G1 X-6.4939 Y2.645 Z-0.6362
G1 X-6.4907 Y2.6494 Z-0.6369
G1 X-6.4881 Y2.6542 Z-0.6376
G1 X-6.4861 Y2.6592 Z-0.6383
G1 X-6.4846 Y2.6644 Z-0.6391
G1 X-6.4838 Y2.6698 Z-0.6398
G1 X-6.4836 Y2.6752 Z-0.6405
G1 X-6.484 Y2.6806 Z-0.6412
G1 X-6.485 Y2.6859 Z-0.642
G1 X-6.4867 Y2.6911 Z-0.6427
G1 X-6.4889 Y2.696 Z-0.6434
G1 X-6.4917 Y2.7007 Z-0.6441
G1 X-6.4951 Y2.705 Z-0.6449
G1 X-6.4988 Y2.7089 Z-0.6456
G1 X-6.5031 Y2.7123 Z-0.6463
G1 X-6.5076 Y2.7152 Z-0.6471
G1 X-6.5125 Y2.7176 Z-0.6478
G1 X-6.5177 Y2.7193 Z-0.6485
G1 X-6.5229 Y2.7205 Z-0.6492
G1 X-6.5283 Y2.7211 Z-0.65
G1 X-6.5338 Y2.721 Z-0.6507
G1 X-6.5392 Y2.7203 Z-0.6514
G1 X-6.5444 Y2.719 Z-0.6521
G1 X-6.5495 Y2.7171 Z-0.6529
G1 X-6.5543 Y2.7146 Z-0.6536
G1 X-6.5588 Y2.7115 Z-0.6543
G1 X-6.5629 Y2.708 Z-0.655
G1 X-6.5666 Y2.704 Z-0.6558
G1 X-6.5698 Y2.6996 Z-0.6565
G1 X-6.5725 Y2.6949 Z-0.6572
G1 X-6.5746 Y2.6899 Z-0.6579
G1 X-6.5761 Y2.6847 Z-0.6587
G1 X-6.577 Y2.6793 Z-0.6594
G1 X-6.5773 Y2.6739 Z-0.6601
G1 X-6.5769 Y2.6685 Z-0.6609
G1 X-6.5759 Y2.6632 Z-0.6616
G1 X-6.5744 Y2.658 Z-0.6623
G1 X-6.5722 Y2.653 Z-0.663
G1 X-6.5694 Y2.6483 Z-0.6638
G1 X-6.5662 Y2.644 Z-0.6645
G1 X-6.5624 Y2.6401 Z-0.6652
G1 X-6.5583 Y2.6366 Z-0.6659
G1 X-6.5537 Y2.6336 Z-0.6667
G1 X-6.5489 Y2.6312 Z-0.6674
G1 X-6.5438 Y2.6294 Z-0.6681
G1 X-6.5385 Y2.6281 Z-0.6688
G1 X-6.5331 Y2.6275 Z-0.6696
G1 X-6.5277 Z-0.6703
G1 X-6.5223 Y2.6281 Z-0.671
G1 X-6.517 Y2.6294 Z-0.6717
G1 X-6.5119 Y2.6312 Z-0.6725
G1 X-6.507 Y2.6337 Z-0.6732
G1 X-6.5025 Y2.6366 Z-0.6739
G1 X-6.4983 Y2.6401 Z-0.6746
G1 X-6.4946 Y2.6441 Z-0.6754
G1 X-6.4914 Y2.6484 Z-0.6761
G1 X-6.4886 Y2.6531 Z-0.6768
G1 X-6.4865 Y2.6581 Z-0.6776
G1 X-6.4849 Y2.6633 Z-0.6783
G1 X-6.4839 Y2.6686 Z-0.679
G1 X-6.4836 Y2.674 Z-0.6797
G1 X-6.4839 Y2.6794 Z-0.6805
G1 X-6.4848 Y2.6848 Z-0.6812
G1 X-6.4863 Y2.69 Z-0.6819
G1 X-6.4884 Y2.695 Z-0.6826
G1 X-6.4911 Y2.6997 Z-0.6834
G1 X-6.4943 Y2.7041 Z-0.6841
G1 X-6.498 Y2.7081 Z-0.6848
G1 X-6.5021 Y2.7116 Z-0.6855
G1 X-6.5066 Y2.7146 Z-0.6863
G1 X-6.5114 Y2.7171 Z-0.687
G1 X-6.5165 Y2.719 Z-0.6877
G1 X-6.5218 Y2.7203 Z-0.6884
G1 X-6.5272 Y2.721 Z-0.6892
G1 X-6.5326 Y2.7211 Z-0.6899
G1 X-6.538 Y2.7205 Z-0.6906
G1 X-6.5433 Y2.7193 Z-0.6913
G1 X-6.5484 Y2.7175 Z-0.6921
G1 X-6.5533 Y2.7152 Z-0.6928
G1 X-6.5579 Y2.7122 Z-0.6935
G1 X-6.5621 Y2.7088 Z-0.6943
G1 X-6.5659 Y2.7049 Z-0.695
G1 X-6.5692 Y2.7006 Z-0.6957
G1 X-6.5719 Y2.696 Z-0.6964
G1 X-6.5742 Y2.691 Z-0.6972
G1 X-6.5758 Y2.6858 Z-0.6979
G1 X-6.5769 Y2.6805 Z-0.6986
G1 X-6.5773 Y2.6751 Z-0.6993
G1 X-6.577 Y2.6697 Z-0.7001
G1 X-6.5762 Y2.6643 Z-0.7008
G1 X-6.5747 Y2.6591 Z-0.7015
G1 X-6.5727 Y2.6541 Z-0.7022
G1 X-6.5701 Y2.6493 Z-0.703
G1 X-6.5669 Y2.6449 Z-0.7037
G1 X-6.5633 Y2.6409 Z-0.7044
G1 X-6.5592 Y2.6373 Z-0.7051
G1 X-6.5547 Y2.6342 Z-0.7059
G1 X-6.5499 Y2.6317 Z-0.7066
G1 X-6.5449 Y2.6297 Z-0.7073
G1 X-6.5396 Y2.6283 Z-0.708
G1 X-6.5343 Y2.6276 Z-0.7088
G1 X-6.5288 Y2.6274 Z-0.7095
G1 X-6.5234 Y2.6279 Z-0.7102
G1 X-6.5181 Y2.6291 Z-0.711
G1 X-6.513 Y2.6308 Z-0.7117
G1 X-6.5081 Y2.6331 Z-0.7124
G1 X-6.5035 Y2.6359 Z-0.7131
G1 X-6.4992 Y2.6393 Z-0.7139
G1 X-6.4954 Y2.6432 Z-0.7146
G1 X-6.492 Y2.6474 Z-0.7153
G1 X-6.4892 Y2.652 Z-0.716
G1 X-6.4869 Y2.657 Z-0.7168
G1 X-6.4852 Y2.6621 Z-0.7175
G1 X-6.4841 Y2.6674 Z-0.7182
G1 X-6.4836 Y2.6728 Z-0.7189
G1 X-6.4837 Y2.6783 Z-0.7197
G1 X-6.4845 Y2.6836 Z-0.7204
G1 X-6.4859 Y2.6889 Z-0.7211
G1 X-6.4879 Y2.6939 Z-0.7218
G1 X-6.4905 Y2.6987 Z-0.7226
G1 X-6.4935 Y2.7032 Z-0.7233
G1 X-6.4971 Y2.7072 Z-0.724
G1 X-6.5012 Y2.7109 Z-0.7248
G1 X-6.5056 Y2.714 Z-0.7255
G1 X-6.5104 Y2.7166 Z-0.7262
G1 X-6.5154 Y2.7186 Z-0.7269
G1 X-6.5206 Y2.7201 Z-0.7277
G1 X-6.526 Y2.7209 Z-0.7284
G1 X-6.5314 Y2.7211 Z-0.7291
G1 X-6.5368 Y2.7207 Z-0.7298
G1 X-6.5421 Y2.7196 Z-0.7306
G1 X-6.5473 Y2.718 Z-0.7313
G1 X-6.5522 Y2.7157 Z-0.732
G1 X-6.5569 Y2.7129 Z-0.7327
G1 X-6.5612 Y2.7096 Z-0.7335
G1 X-6.5651 Y2.7058 Z-0.7342
G1 X-6.5685 Y2.7016 Z-0.7349
G1 X-6.5714 Y2.697 Z-0.7356
G1 X-6.5737 Y2.6921 Z-0.7364
G1 X-6.5755 Y2.687 Z-0.7371
G1 X-6.5767 Y2.6817 Z-0.7378
G1 X-6.5772 Y2.6763 Z-0.7385
G1 X-6.5771 Y2.6709 Z-0.7393
G1 X-6.5764 Y2.6655 Z-0.74
G3 X-6.5216 Y2.6282 I0.046 J0.0088
G3 X-6.4844 Y2.683 I-0.0088 J0.046
G3 X-6.5392 Y2.7203 I-0.046 J-0.0088
G3 X-6.5764 Y2.6655 I0.0088 J-0.046
G3 X-6.549 Y2.6469 I0.023 J0.0044
G1 X-6.5368 Y2.6492
G1 X-6.5329 Y2.6499 Z-0.7397
G1 X-6.5292 Y2.6507 Z-0.7388
G1 X-6.5256 Y2.6513 Z-0.7373
G1 X-6.5223 Y2.652 Z-0.7352
G1 X-6.5194 Y2.6525 Z-0.7327
G1 X-6.5169 Y2.653 Z-0.7297
G1 X-6.5149 Y2.6534 Z-0.7263
G1 X-6.5134 Y2.6537 Z-0.7227
G1 X-6.5125 Y2.6538 Z-0.7189
G1 X-6.5122 Y2.6539 Z-0.715
G0 Z0.2
G0 X-9.4235 Y2.5547
G0 Z0.04
G1 Z-0.015 F30.
G1 Y2.5543 Z-0.0189
G1 Y2.5534 Z-0.0227
G1 Y2.5519 Z-0.0264
G1 Y2.5499 Z-0.0297
G1 Y2.5473 Z-0.0327
G1 Y2.5443 Z-0.0352
G1 Y2.541 Z-0.0373
G1 Y2.5374 Z-0.0388
G1 Y2.5336 Z-0.0397
G1 Y2.5297 Z-0.04
G1 Y2.5172
G3 X-9.4001 Y2.4937 I0.0234 J0
G1 X-9.3947 Y2.494 Z-0.0407
G1 X-9.3894 Y2.495 Z-0.0415
G1 X-9.3842 Y2.4965 Z-0.0422
G1 X-9.3792 Y2.4987 Z-0.0429
G1 X-9.3745 Y2.5014 Z-0.0436
G1 X-9.3701 Y2.5046 Z-0.0444
G1 X-9.3662 Y2.5083 Z-0.0451
G1 X-9.3627 Y2.5125 Z-0.0458
G1 X-9.3597 Y2.517 Z-0.0465
G1 X-9.3572 Y2.5218 Z-0.0473
G1 X-9.3553 Y2.5269 Z-0.048
G1 X-9.354 Y2.5322 Z-0.0487
G1 X-9.3534 Y2.5376 Z-0.0494
G1 X-9.3533 Y2.543 Z-0.0502
G1 X-9.3539 Y2.5484 Z-0.0509
G1 X-9.3551 Y2.5537 Z-0.0516
G1 X-9.357 Y2.5588 Z-0.0523
G1 X-9.3594 Y2.5637 Z-0.0531
G1 X-9.3623 Y2.5682 Z-0.0538
G1 X-9.3657 Y2.5724 Z-0.0545
G1 X-9.3697 Y2.5762 Z-0.0552
G1 X-9.374 Y2.5795 Z-0.056
G1 X-9.3786 Y2.5822 Z-0.0567
G1 X-9.3836 Y2.5844 Z-0.0574
G1 X-9.3888 Y2.586 Z-0.0582
G1 X-9.3941 Y2.587 Z-0.0589
G1 X-9.3995 Y2.5874 Z-0.0596
G1 X-9.405 Y2.5872 Z-0.0603
G1 X-9.4103 Y2.5863 Z-0.0611
G1 X-9.4155 Y2.5848 Z-0.0618
G1 X-9.4205 Y2.5827 Z-0.0625
G1 X-9.4253 Y2.5801 Z-0.0632
G1 X-9.4297 Y2.5769 Z-0.064
G1 X-9.4337 Y2.5733 Z-0.0647
G1 X-9.4372 Y2.5692 Z-0.0654
G1 X-9.4403 Y2.5647 Z-0.0661
G1 X-9.4428 Y2.5599 Z-0.0669
G1 X-9.4448 Y2.5548 Z-0.0676
G1 X-9.4461 Y2.5496 Z-0.0683
G1 X-9.4468 Y2.5442 Z-0.069
G1 X-9.4469 Y2.5388 Z-0.0698
G1 X-9.4464 Y2.5334 Z-0.0705
G1 X-9.4453 Y2.528 Z-0.0712
G1 X-9.4435 Y2.5229 Z-0.072
G1 X-9.4412 Y2.518 Z-0.0727
G1 X-9.4383 Y2.5134 Z-0.0734
G1 X-9.4349 Y2.5092 Z-0.0741
G1 X-9.431 Y2.5054 Z-0.0749
G1 X-9.4268 Y2.502 Z-0.0756
G1 X-9.4221 Y2.4992 Z-0.0763
G1 X-9.4172 Y2.497 Z-0.077
G1 X-9.412 Y2.4953 Z-0.0778
G1 X-9.4067 Y2.4942 Z-0.0785
G1 X-9.4013 Y2.4937 Z-0.0792
G1 X-9.3959 Y2.4939 Z-0.0799
G1 X-9.3905 Y2.4947 Z-0.0807
G1 X-9.3853 Y2.4961 Z-0.0814
G1 X-9.3802 Y2.4982 Z-0.0821
G1 X-9.3755 Y2.5007 Z-0.0828
G1 X-9.371 Y2.5039 Z-0.0836
G1 X-9.367 Y2.5075 Z-0.0843
G1 X-9.3634 Y2.5115 Z-0.085
G1 X-9.3603 Y2.516 Z-0.0857
G1 X-9.3577 Y2.5207 Z-0.0865
G1 X-9.3557 Y2.5258 Z-0.0872
G1 X-9.3543 Y2.531 Z-0.0879
G1 X-9.3535 Y2.5364 Z-0.0887
G1 X-9.3533 Y2.5418 Z-0.0894
G1 X-9.3537 Y2.5472 Z-0.0901
G1 X-9.3548 Y2.5525 Z-0.0908
G1 X-9.3565 Y2.5577 Z-0.0916
G1 X-9.3588 Y2.5626 Z-0.0923
G1 X-9.3616 Y2.5673 Z-0.093
G1 X-9.365 Y2.5715 Z-0.0937
G1 X-9.3688 Y2.5754 Z-0.0945
G1 X-9.373 Y2.5788 Z-0.0952
G1 X-9.3776 Y2.5817 Z-0.0959
G1 X-9.3825 Y2.584 Z-0.0966
G1 X-9.3876 Y2.5857 Z-0.0974
G1 X-9.3929 Y2.5869 Z-0.0981
G1 X-9.3983 Y2.5874 Z-0.0988
G1 X-9.4038 Y2.5873 Z-0.0995
G1 X-9.4091 Y2.5866 Z-0.1003
G1 X-9.4144 Y2.5852 Z-0.101
G1 X-9.4195 Y2.5832 Z-0.1017
G1 X-9.4243 Y2.5807 Z-0.1024
G1 X-9.4288 Y2.5777 Z-0.1032
G1 X-9.4328 Y2.5741 Z-0.1039
G1 X-9.4365 Y2.5701 Z-0.1046
G1 X-9.4397 Y2.5657 Z-0.1054
G1 X-9.4423 Y2.561 Z-0.1061
G1 X-9.4444 Y2.5559 Z-0.1068
G1 X-9.4459 Y2.5507 Z-0.1075
G1 X-9.4467 Y2.5454 Z-0.1083
G1 X-9.447 Y2.5399 Z-0.109
G1 X-9.4466 Y2.5345 Z-0.1097
G1 X-9.4456 Y2.5292 Z-0.1104
G1 X-9.4439 Y2.524 Z-0.1112
G1 X-9.4417 Y2.5191 Z-0.1119
G1 X-9.439 Y2.5144 Z-0.1126
G1 X-9.4357 Y2.5101 Z-0.1133
G1 X-9.4319 Y2.5062 Z-0.1141
G1 X-9.4277 Y2.5027 Z-0.1148
G1 X-9.4232 Y2.4998 Z-0.1155
G1 X-9.4183 Y2.4974 Z-0.1162
G1 X-9.4132 Y2.4956 Z-0.117
G1 X-9.4079 Y2.4944 Z-0.1177
G1 X-9.4025 Y2.4938 Z-0.1184
G1 X-9.3971 Z-0.1191
G1 X-9.3917 Y2.4945 Z-0.1199
G1 X-9.3864 Y2.4958 Z-0.1206
G1 X-9.3813 Y2.4977 Z-0.1213
G1 X-9.3765 Y2.5001 Z-0.1221
G1 X-9.372 Y2.5031 Z-0.1228
G1 X-9.3678 Y2.5066 Z-0.1235
G1 X-9.3641 Y2.5106 Z-0.1242
G1 X-9.3609 Y2.515 Z-0.125
G1 X-9.3582 Y2.5197 Z-0.1257
G1 X-9.3561 Y2.5247 Z-0.1264
G1 X-9.3545 Y2.5299 Z-0.1271
G1 X-9.3536 Y2.5352 Z-0.1279
G1 X-9.3533 Y2.5406 Z-0.1286
G1 X-9.3536 Y2.546 Z-0.1293
G1 X-9.3545 Y2.5514 Z-0.13
G1 X-9.3561 Y2.5566 Z-0.1308
G1 X-9.3582 Y2.5616 Z-0.1315
G1 X-9.3609 Y2.5663 Z-0.1322
G1 X-9.3642 Y2.5706 Z-0.1329
G1 X-9.3679 Y2.5746 Z-0.1337
G1 X-9.372 Y2.5781 Z-0.1344
G1 X-9.3766 Y2.5811 Z-0.1351
G1 X-9.3814 Y2.5835 Z-0.1359
G1 X-9.3865 Y2.5854 Z-0.1366
G1 X-9.3918 Y2.5867 Z-0.1373
G1 X-9.3972 Y2.5873 Z-0.138
G1 X-9.4026 Y2.5874 Z-0.1388
G1 X-9.408 Y2.5868 Z-0.1395
G1 X-9.4133 Y2.5855 Z-0.1402
G1 X-9.4184 Y2.5837 Z-0.1409
G1 X-9.4232 Y2.5813 Z-0.1417
G1 X-9.4278 Y2.5784 Z-0.1424
G1 X-9.432 Y2.5749 Z-0.1431
G1 X-9.4357 Y2.571 Z-0.1438
G1 X-9.439 Y2.5667 Z-0.1446
G1 X-9.4418 Y2.562 Z-0.1453
G1 X-9.444 Y2.5571 Z-0.146
G1 X-9.4456 Y2.5519 Z-0.1467
G1 X-9.4466 Y2.5465 Z-0.1475
G1 X-9.447 Y2.5411 Z-0.1482
G1 X-9.4467 Y2.5357 Z-0.1489
G1 X-9.4458 Y2.5303 Z-0.1496
G1 X-9.4444 Y2.5251 Z-0.1504
G1 X-9.4423 Y2.5201 Z-0.1511
G1 X-9.4396 Y2.5154 Z-0.1518
G1 X-9.4364 Y2.511 Z-0.1526
G1 X-9.4328 Y2.507 Z-0.1533
G1 X-9.4287 Y2.5034 Z-0.154
G1 X-9.4242 Y2.5004 Z-0.1547
G1 X-9.4194 Y2.4979 Z-0.1555
G1 X-9.4143 Y2.4959 Z-0.1562
G1 X-9.4091 Y2.4946 Z-0.1569
G1 X-9.4037 Y2.4939 Z-0.1576
G1 X-9.3983 Y2.4938 Z-0.1584
G1 X-9.3929 Y2.4943 Z-0.1591
G1 X-9.3875 Y2.4954 Z-0.1598
G1 X-9.3824 Y2.4972 Z-0.1605
G1 X-9.3775 Y2.4995 Z-0.1613
G1 X-9.3729 Y2.5024 Z-0.162
G1 X-9.3687 Y2.5058 Z-0.1627
G1 X-9.3649 Y2.5097 Z-0.1634
G1 X-9.3616 Y2.514 Z-0.1642
G1 X-9.3587 Y2.5186 Z-0.1649
G1 X-9.3565 Y2.5236 Z-0.1656
G1 X-9.3548 Y2.5287 Z-0.1663
G1 X-9.3537 Y2.534 Z-0.1671
G1 X-9.3533 Y2.5394 Z-0.1678
G1 X-9.3535 Y2.5449 Z-0.1685
G1 X-9.3543 Y2.5502 Z-0.1693
G1 X-9.3557 Y2.5555 Z-0.17
G1 X-9.3577 Y2.5605 Z-0.1707
G1 X-9.3603 Y2.5653 Z-0.1714
G1 X-9.3634 Y2.5697 Z-0.1722
G1 X-9.367 Y2.5738 Z-0.1729
G1 X-9.3711 Y2.5774 Z-0.1736
G1 X-9.3756 Y2.5805 Z-0.1743
G1 X-9.3803 Y2.583 Z-0.1751
G1 X-9.3854 Y2.585 Z-0.1758
G1 X-9.3906 Y2.5865 Z-0.1765
G1 X-9.396 Y2.5872 Z-0.1772
G1 X-9.4014 Y2.5874 Z-0.178
G1 X-9.4068 Y2.5869 Z-0.1787
G1 X-9.4121 Y2.5859 Z-0.1794
G1 X-9.4173 Y2.5842 Z-0.1801
G1 X-9.4222 Y2.5819 Z-0.1809
G1 X-9.4268 Y2.5791 Z-0.1816
G1 X-9.4311 Y2.5757 Z-0.1823
G1 X-9.435 Y2.5719 Z-0.1831
G1 X-9.4384 Y2.5677 Z-0.1838
G1 X-9.4412 Y2.5631 Z-0.1845
G1 X-9.4436 Y2.5582 Z-0.1852
G1 X-9.4453 Y2.553 Z-0.186
G1 X-9.4464 Y2.5477 Z-0.1867
G1 X-9.4469 Y2.5423 Z-0.1874
G1 X-9.4468 Y2.5369 Z-0.1881
G1 X-9.4461 Y2.5315 Z-0.1889
G1 X-9.4447 Y2.5263 Z-0.1896
G1 X-9.4428 Y2.5212 Z-0.1903
G1 X-9.4402 Y2.5164 Z-0.191
G1 X-9.4372 Y2.5119 Z-0.1918
G1 X-9.4336 Y2.5078 Z-0.1925
G1 X-9.4296 Y2.5042 Z-0.1932
G1 X-9.4252 Y2.501 Z-0.1939
G1 X-9.4205 Y2.4984 Z-0.1947
G1 X-9.4154 Y2.4963 Z-0.1954
G1 X-9.4102 Y2.4948 Z-0.1961
G1 X-9.4049 Y2.494 Z-0.1968
G1 X-9.3994 Y2.4937 Z-0.1976
G1 X-9.394 Y2.4941 Z-0.1983
G1 X-9.3887 Y2.4951 Z-0.199
G1 X-9.3835 Y2.4968 Z-0.1998
G1 X-9.3786 Y2.499 Z-0.2005
G1 X-9.3739 Y2.5018 Z-0.2012
G1 X-9.3696 Y2.5051 Z-0.2019
G1 X-9.3657 Y2.5088 Z-0.2027
G1 X-9.3622 Y2.513 Z-0.2034
G1 X-9.3593 Y2.5176 Z-0.2041
G1 X-9.3569 Y2.5225 Z-0.2048
G1 X-9.3551 Y2.5276 Z-0.2056
G1 X-9.3539 Y2.5329 Z-0.2063
G1 X-9.3533 Y2.5383 Z-0.207
G1 X-9.3534 Y2.5437 Z-0.2077
G1 X-9.3541 Y2.5491 Z-0.2085
G1 X-9.3553 Y2.5543 Z-0.2092
G1 X-9.3572 Y2.5594 Z-0.2099
G1 X-9.3597 Y2.5643 Z-0.2106
G1 X-9.3627 Y2.5688 Z-0.2114
G1 X-9.3662 Y2.5729 Z-0.2121
G1 X-9.3702 Y2.5766 Z-0.2128
G1 X-9.3746 Y2.5798 Z-0.2135
G1 X-9.3793 Y2.5825 Z-0.2143
G1 X-9.3843 Y2.5847 Z-0.215
G1 X-9.3895 Y2.5862 Z-0.2157
G1 X-9.3948 Y2.5871 Z-0.2165
G1 X-9.4002 Y2.5874 Z-0.2172
G1 X-9.4056 Y2.5871 Z-0.2179
G1 X-9.411 Y2.5862 Z-0.2186
G1 X-9.4162 Y2.5846 Z-0.2194
G1 X-9.4212 Y2.5824 Z-0.2201
G1 X-9.4259 Y2.5797 Z-0.2208
G1 X-9.4302 Y2.5765 Z-0.2215
G1 X-9.4342 Y2.5728 Z-0.2223
G1 X-9.4377 Y2.5686 Z-0.223
G1 X-9.4406 Y2.5641 Z-0.2237
G1 X-9.4431 Y2.5592 Z-0.2244
G1 X-9.445 Y2.5542 Z-0.2252
G1 X-9.4462 Y2.5489 Z-0.2259
G1 X-9.4469 Y2.5435 Z-0.2266
G1 Y2.5381 Z-0.2273
G1 X-9.4463 Y2.5327 Z-0.2281
G1 X-9.4451 Y2.5274 Z-0.2288
G1 X-9.4433 Y2.5223 Z-0.2295
G1 X-9.4408 Y2.5174 Z-0.2302
G1 X-9.4379 Y2.5129 Z-0.231
G1 X-9.4344 Y2.5087 Z-0.2317
G1 X-9.4305 Y2.5049 Z-0.2324
G1 X-9.4262 Y2.5016 Z-0.2332
G1 X-9.4215 Y2.4989 Z-0.2339
G1 X-9.4166 Y2.4967 Z-0.2346
G1 X-9.4114 Y2.4951 Z-0.2353
G1 X-9.406 Y2.4941 Z-0.2361
G1 X-9.4006 Y2.4937 Z-0.2368
G1 X-9.3952 Y2.494 Z-0.2375
G1 X-9.3898 Y2.4949 Z-0.2382
G1 X-9.3846 Y2.4964 Z-0.239
G1 X-9.3796 Y2.4985 Z-0.2397
G1 X-9.3749 Y2.5011 Z-0.2404
G1 X-9.3705 Y2.5043 Z-0.2411
G1 X-9.3665 Y2.508 Z-0.2419
G1 X-9.3629 Y2.5121 Z-0.2426
G1 X-9.3599 Y2.5166 Z-0.2433
G1 X-9.3574 Y2.5214 Z-0.244
G1 X-9.3555 Y2.5264 Z-0.2448
G1 X-9.3541 Y2.5317 Z-0.2455
G1 X-9.3534 Y2.5371 Z-0.2462
G1 X-9.3533 Y2.5425 Z-0.247
G1 X-9.3539 Y2.5479 Z-0.2477
G1 X-9.355 Y2.5532 Z-0.2484
G1 X-9.3568 Y2.5583 Z-0.2491
G1 X-9.3591 Y2.5632 Z-0.2499
G1 X-9.362 Y2.5678 Z-0.2506
G1 X-9.3654 Y2.572 Z-0.2513
G1 X-9.3693 Y2.5758 Z-0.252
G1 X-9.3736 Y2.5792 Z-0.2528
G1 X-9.3782 Y2.582 Z-0.2535
G1 X-9.3831 Y2.5842 Z-0.2542
G1 X-9.3883 Y2.5859 Z-0.2549
G1 X-9.3936 Y2.587 Z-0.2557
G1 X-9.399 Y2.5874 Z-0.2564
G1 X-9.4045 Y2.5872 Z-0.2571
G1 X-9.4098 Y2.5864 Z-0.2578
G1 X-9.4151 Y2.585 Z-0.2586
G1 X-9.4201 Y2.583 Z-0.2593
G1 X-9.4249 Y2.5804 Z-0.26
G1 X-9.4293 Y2.5772 Z-0.2607
G1 X-9.4333 Y2.5736 Z-0.2615
G1 X-9.4369 Y2.5696 Z-0.2622
G1 X-9.44 Y2.5651 Z-0.2629
G1 X-9.4426 Y2.5603 Z-0.2637
G1 X-9.4446 Y2.5553 Z-0.2644
G1 X-9.446 Y2.55 Z-0.2651
G1 X-9.4468 Y2.5447 Z-0.2658
G1 X-9.447 Y2.5392 Z-0.2666
G1 X-9.4465 Y2.5338 Z-0.2673
G1 X-9.4454 Y2.5285 Z-0.268
G1 X-9.4437 Y2.5234 Z-0.2687
G1 X-9.4414 Y2.5184 Z-0.2695
G1 X-9.4386 Y2.5138 Z-0.2702
G1 X-9.4352 Y2.5096 Z-0.2709
G1 X-9.4314 Y2.5057 Z-0.2716
G1 X-9.4272 Y2.5023 Z-0.2724
G1 X-9.4226 Y2.4995 Z-0.2731
G1 X-9.4177 Y2.4971 Z-0.2738
G1 X-9.4125 Y2.4954 Z-0.2745
G1 X-9.4072 Y2.4943 Z-0.2753
G1 X-9.4018 Y2.4938 Z-0.276
G1 X-9.3964 Y2.4939 Z-0.2767
G1 X-9.391 Y2.4946 Z-0.2774
G1 X-9.3858 Y2.496 Z-0.2782
G1 X-9.3807 Y2.4979 Z-0.2789
G1 X-9.3759 Y2.5005 Z-0.2796
G1 X-9.3714 Y2.5036 Z-0.2804
G1 X-9.3673 Y2.5071 Z-0.2811
G1 X-9.3637 Y2.5111 Z-0.2818
G1 X-9.3605 Y2.5155 Z-0.2825
G1 X-9.3579 Y2.5203 Z-0.2833
G1 X-9.3558 Y2.5253 Z-0.284
G1 X-9.3544 Y2.5305 Z-0.2847
G1 X-9.3535 Y2.5359 Z-0.2854
G1 X-9.3533 Y2.5413 Z-0.2862
G1 X-9.3537 Y2.5467 Z-0.2869
G1 X-9.3547 Y2.5521 Z-0.2876
G1 X-9.3563 Y2.5572 Z-0.2883
G1 X-9.3586 Y2.5622 Z-0.2891
G1 X-9.3613 Y2.5668 Z-0.2898
G1 X-9.3646 Y2.5712 Z-0.2905
G1 X-9.3684 Y2.5751 Z-0.2912
G1 X-9.3726 Y2.5785 Z-0.292
G1 X-9.3772 Y2.5814 Z-0.2927
G1 X-9.382 Y2.5838 Z-0.2934
G1 X-9.3872 Y2.5856 Z-0.2941
G1 X-9.3925 Y2.5868 Z-0.2949
G1 X-9.3979 Y2.5874 Z-0.2956
G1 X-9.4033 Y2.5873 Z-0.2963
G1 X-9.4087 Y2.5866 Z-0.2971
G1 X-9.4139 Y2.5853 Z-0.2978
G1 X-9.419 Y2.5835 Z-0.2985
G1 X-9.4238 Y2.581 Z-0.2992
G1 X-9.4284 Y2.578 Z-0.3
G1 X-9.4325 Y2.5745 Z-0.3007
G1 X-9.4362 Y2.5705 Z-0.3014
G1 X-9.4394 Y2.5661 Z-0.3021
G1 X-9.4421 Y2.5614 Z-0.3029
G1 X-9.4442 Y2.5564 Z-0.3036
G1 X-9.4458 Y2.5512 Z-0.3043
G1 X-9.4467 Y2.5459 Z-0.305
G1 X-9.447 Y2.5404 Z-0.3058
G1 X-9.4466 Y2.535 Z-0.3065
G1 X-9.4457 Y2.5297 Z-0.3072
G1 X-9.4441 Y2.5245 Z-0.3079
G1 X-9.442 Y2.5195 Z-0.3087
G1 X-9.4392 Y2.5148 Z-0.3094
G1 X-9.436 Y2.5105 Z-0.3101
G1 X-9.4323 Y2.5065 Z-0.3109
G1 X-9.4281 Y2.503 Z-0.3116
G1 X-9.4236 Y2.5 Z-0.3123
G1 X-9.4187 Y2.4976 Z-0.313
G1 X-9.4137 Y2.4957 Z-0.3138
G1 X-9.4084 Y2.4945 Z-0.3145
G1 X-9.403 Y2.4938 Z-0.3152
G1 X-9.3976 Z-0.3159
G1 X-9.3922 Y2.4944 Z-0.3167
G1 X-9.3869 Y2.4956 Z-0.3174
G1 X-9.3818 Y2.4975 Z-0.3181
G1 X-9.3769 Y2.4999 Z-0.3188
G1 X-9.3724 Y2.5028 Z-0.3196
G1 X-9.3682 Y2.5063 Z-0.3203
G1 X-9.3644 Y2.5102 Z-0.321
G1 X-9.3612 Y2.5146 Z-0.3217
G1 X-9.3584 Y2.5192 Z-0.3225
G1 X-9.3562 Y2.5242 Z-0.3232
G1 X-9.3546 Y2.5294 Z-0.3239
G1 X-9.3536 Y2.5347 Z-0.3246
G1 X-9.3533 Y2.5401 Z-0.3254
G1 X-9.3535 Y2.5456 Z-0.3261
G1 X-9.3544 Y2.5509 Z-0.3268
G1 X-9.3559 Y2.5561 Z-0.3276
G1 X-9.358 Y2.5611 Z-0.3283
G1 X-9.3607 Y2.5659 Z-0.329
G1 X-9.3639 Y2.5702 Z-0.3297
G1 X-9.3675 Y2.5742 Z-0.3305
G1 X-9.3717 Y2.5778 Z-0.3312
G1 X-9.3761 Y2.5808 Z-0.3319
G1 X-9.381 Y2.5833 Z-0.3326
G1 X-9.386 Y2.5853 Z-0.3334
G1 X-9.3913 Y2.5866 Z-0.3341
G1 X-9.3967 Y2.5873 Z-0.3348
G1 X-9.4021 Y2.5874 Z-0.3355
G1 X-9.4075 Y2.5868 Z-0.3363
G1 X-9.4128 Y2.5857 Z-0.337
G1 X-9.4179 Y2.5839 Z-0.3377
G1 X-9.4228 Y2.5816 Z-0.3384
G1 X-9.4274 Y2.5787 Z-0.3392
G1 X-9.4316 Y2.5753 Z-0.3399
G1 X-9.4354 Y2.5714 Z-0.3406
G1 X-9.4387 Y2.5671 Z-0.3413
G1 X-9.4416 Y2.5625 Z-0.3421
G1 X-9.4438 Y2.5575 Z-0.3428
G1 X-9.4455 Y2.5523 Z-0.3435
G1 X-9.4465 Y2.547 Z-0.3443
G1 X-9.447 Y2.5416 Z-0.345
G1 X-9.4468 Y2.5362 Z-0.3457
G1 X-9.4459 Y2.5308 Z-0.3464
G1 X-9.4445 Y2.5256 Z-0.3472
G1 X-9.4425 Y2.5206 Z-0.3479
G1 X-9.4399 Y2.5158 Z-0.3486
G1 X-9.4368 Y2.5114 Z-0.3493
G1 X-9.4331 Y2.5073 Z-0.3501
G1 X-9.4291 Y2.5037 Z-0.3508
G1 X-9.4246 Y2.5006 Z-0.3515
G1 X-9.4198 Y2.4981 Z-0.3522
G1 X-9.4148 Y2.4961 Z-0.353
G1 X-9.4095 Y2.4947 Z-0.3537
G1 X-9.4042 Y2.4939 Z-0.3544
G1 X-9.3987 Y2.4938 Z-0.3551
G1 X-9.3933 Y2.4942 Z-0.3559
G1 X-9.388 Y2.4953 Z-0.3566
G1 X-9.3829 Y2.497 Z-0.3573
G1 X-9.378 Y2.4993 Z-0.3581
G1 X-9.3733 Y2.5021 Z-0.3588
G1 X-9.3691 Y2.5055 Z-0.3595
G1 X-9.3652 Y2.5093 Z-0.3602
G1 X-9.3618 Y2.5136 Z-0.361
G1 X-9.359 Y2.5182 Z-0.3617
G1 X-9.3567 Y2.5231 Z-0.3624
G1 X-9.3549 Y2.5282 Z-0.3631
G1 X-9.3538 Y2.5335 Z-0.3639
G1 X-9.3533 Y2.5389 Z-0.3646
G1 X-9.3534 Y2.5444 Z-0.3653
G1 X-9.3542 Y2.5497 Z-0.366
G1 X-9.3555 Y2.555 Z-0.3668
G1 X-9.3575 Y2.5601 Z-0.3675
G1 X-9.3601 Y2.5649 Z-0.3682
G1 X-9.3631 Y2.5693 Z-0.3689
G1 X-9.3667 Y2.5734 Z-0.3697
G1 X-9.3707 Y2.5771 Z-0.3704
G1 X-9.3751 Y2.5802 Z-0.3711
G1 X-9.3799 Y2.5828 Z-0.3718
G1 X-9.3849 Y2.5849 Z-0.3726
G1 X-9.3901 Y2.5864 Z-0.3733
G1 X-9.3955 Y2.5872 Z-0.374
G1 X-9.4009 Y2.5874 Z-0.3748
G1 X-9.4063 Y2.587 Z-0.3755
G1 X-9.4117 Y2.586 Z-0.3762
G1 X-9.4168 Y2.5844 Z-0.3769
G1 X-9.4218 Y2.5821 Z-0.3777
G1 X-9.4264 Y2.5793 Z-0.3784
G1 X-9.4307 Y2.576 Z-0.3791
G1 X-9.4346 Y2.5723 Z-0.3798
G1 X-9.4381 Y2.5681 Z-0.3806
G1 X-9.441 Y2.5635 Z-0.3813
G1 X-9.4434 Y2.5586 Z-0.382
G1 X-9.4452 Y2.5535 Z-0.3827
G1 X-9.4464 Y2.5482 Z-0.3835
G1 X-9.4469 Y2.5428 Z-0.3842
G1 Y2.5374 Z-0.3849
G1 X-9.4462 Y2.532 Z-0.3856
G1 X-9.4449 Y2.5267 Z-0.3864
G1 X-9.443 Y2.5216 Z-0.3871
G1 X-9.4405 Y2.5168 Z-0.3878
G1 X-9.4375 Y2.5123 Z-0.3885
G1 X-9.434 Y2.5082 Z-0.3893
G1 X-9.43 Y2.5045 Z-0.39
G1 X-9.4256 Y2.5013 Z-0.3907
G1 X-9.4209 Y2.4986 Z-0.3915
G1 X-9.4159 Y2.4965 Z-0.3922
G1 X-9.4107 Y2.4949 Z-0.3929
G1 X-9.4053 Y2.494 Z-0.3936
G1 X-9.3999 Y2.4937 Z-0.3944
G1 X-9.3945 Y2.4941 Z-0.3951
G1 X-9.3892 Y2.495 Z-0.3958
G1 X-9.384 Y2.4966 Z-0.3965
G1 X-9.379 Y2.4988 Z-0.3973
G1 X-9.3743 Y2.5015 Z-0.398
G1 X-9.37 Y2.5047 Z-0.3987
G1 X-9.366 Y2.5085 Z-0.3994
G1 X-9.3625 Y2.5126 Z-0.4002
G1 X-9.3596 Y2.5172 Z-0.4009
G1 X-9.3571 Y2.522 Z-0.4016
G1 X-9.3553 Y2.5271 Z-0.4023
G1 X-9.354 Y2.5324 Z-0.4031
G1 X-9.3534 Y2.5378 Z-0.4038
G1 X-9.3533 Y2.5432 Z-0.4045
G1 X-9.354 Y2.5486 Z-0.4052
G1 X-9.3552 Y2.5539 Z-0.406
G1 X-9.357 Y2.559 Z-0.4067
G1 X-9.3595 Y2.5638 Z-0.4074
G1 X-9.3624 Y2.5684 Z-0.4082
G1 X-9.3659 Y2.5726 Z-0.4089
G1 X-9.3698 Y2.5763 Z-0.4096
G1 X-9.3741 Y2.5796 Z-0.4103
G1 X-9.3788 Y2.5823 Z-0.4111
G1 X-9.3838 Y2.5845 Z-0.4118
G1 X-9.389 Y2.5861 Z-0.4125
G1 X-9.3943 Y2.5871 Z-0.4132
G1 X-9.3997 Y2.5874 Z-0.414
G1 X-9.4051 Y2.5872 Z-0.4147
G1 X-9.4105 Y2.5863 Z-0.4154
G1 X-9.4157 Y2.5848 Z-0.4161
G1 X-9.4207 Y2.5827 Z-0.4169
G1 X-9.4254 Y2.58 Z-0.4176
G1 X-9.4298 Y2.5768 Z-0.4183
G1 X-9.4338 Y2.5731 Z-0.419
G1 X-9.4374 Y2.569 Z-0.4198
G1 X-9.4404 Y2.5645 Z-0.4205
G1 X-9.4429 Y2.5597 Z-0.4212
G1 X-9.4448 Y2.5546 Z-0.422
G1 X-9.4461 Y2.5494 Z-0.4227
G1 X-9.4469 Y2.544 Z-0.4234
G1 Y2.5386 Z-0.4241
G1 X-9.4464 Y2.5332 Z-0.4249
G1 X-9.4452 Y2.5279 Z-0.4256
G1 X-9.4434 Y2.5227 Z-0.4263
G1 X-9.4411 Y2.5178 Z-0.427
G1 X-9.4382 Y2.5133 Z-0.4278
G1 X-9.4348 Y2.509 Z-0.4285
G1 X-9.4309 Y2.5052 Z-0.4292
G1 X-9.4266 Y2.5019 Z-0.4299
G1 X-9.422 Y2.4991 Z-0.4307
G1 X-9.417 Y2.4969 Z-0.4314
G1 X-9.4118 Y2.4952 Z-0.4321
G1 X-9.4065 Y2.4942 Z-0.4328
G1 X-9.4011 Y2.4937 Z-0.4336
G1 X-9.3957 Y2.4939 Z-0.4343
G1 X-9.3903 Y2.4948 Z-0.435
G1 X-9.3851 Y2.4962 Z-0.4357
G1 X-9.3801 Y2.4982 Z-0.4365
G1 X-9.3753 Y2.5008 Z-0.4372
G1 X-9.3709 Y2.504 Z-0.4379
G1 X-9.3668 Y2.5076 Z-0.4387
G1 X-9.3633 Y2.5117 Z-0.4394
G1 X-9.3602 Y2.5161 Z-0.4401
G1 X-9.3576 Y2.5209 Z-0.4408
G1 X-9.3556 Y2.526 Z-0.4416
G1 X-9.3542 Y2.5312 Z-0.4423
G1 X-9.3534 Y2.5366 Z-0.443
G1 X-9.3533 Y2.542 Z-0.4437
G1 X-9.3538 Y2.5474 Z-0.4445
G1 X-9.3549 Y2.5527 Z-0.4452
G1 X-9.3566 Y2.5579 Z-0.4459
G1 X-9.3589 Y2.5628 Z-0.4466
G1 X-9.3617 Y2.5674 Z-0.4474
G1 X-9.3651 Y2.5717 Z-0.4481
G1 X-9.3689 Y2.5755 Z-0.4488
G1 X-9.3732 Y2.5789 Z-0.4495
G1 X-9.3778 Y2.5818 Z-0.4503
G1 X-9.3827 Y2.5841 Z-0.451
G1 X-9.3878 Y2.5858 Z-0.4517
G1 X-9.3931 Y2.5869 Z-0.4524
G1 X-9.3985 Y2.5874 Z-0.4532
G1 X-9.404 Y2.5873 Z-0.4539
G1 X-9.4093 Y2.5865 Z-0.4546
G1 X-9.4146 Y2.5851 Z-0.4554
G1 X-9.4196 Y2.5832 Z-0.4561
G1 X-9.4244 Y2.5806 Z-0.4568
G1 X-9.4289 Y2.5775 Z-0.4575
G1 X-9.433 Y2.574 Z-0.4583
G1 X-9.4366 Y2.5699 Z-0.459
G1 X-9.4398 Y2.5655 Z-0.4597
G1 X-9.4424 Y2.5608 Z-0.4604
G1 X-9.4444 Y2.5558 Z-0.4612
G1 X-9.4459 Y2.5505 Z-0.4619
G1 X-9.4467 Y2.5452 Z-0.4626
G1 X-9.447 Y2.5397 Z-0.4633
G1 X-9.4466 Y2.5343 Z-0.4641
G1 X-9.4455 Y2.529 Z-0.4648
G1 X-9.4439 Y2.5238 Z-0.4655
G1 X-9.4416 Y2.5189 Z-0.4662
G1 X-9.4389 Y2.5142 Z-0.467
G1 X-9.4356 Y2.5099 Z-0.4677
G1 X-9.4318 Y2.506 Z-0.4684
G1 X-9.4276 Y2.5026 Z-0.4691
G1 X-9.423 Y2.4997 Z-0.4699
G1 X-9.4181 Y2.4973 Z-0.4706
G1 X-9.413 Y2.4955 Z-0.4713
G1 X-9.4077 Y2.4943 Z-0.4721
G1 X-9.4023 Y2.4938 Z-0.4728
G1 X-9.3969 Z-0.4735
G1 X-9.3915 Y2.4945 Z-0.4742
G1 X-9.3862 Y2.4958 Z-0.475
G1 X-9.3811 Y2.4977 Z-0.4757
G1 X-9.3763 Y2.5002 Z-0.4764
G1 X-9.3718 Y2.5033 Z-0.4771
G1 X-9.3677 Y2.5068 Z-0.4779
G1 X-9.364 Y2.5108 Z-0.4786
G1 X-9.3608 Y2.5151 Z-0.4793
G1 X-9.3581 Y2.5199 Z-0.48
G1 X-9.356 Y2.5248 Z-0.4808
G1 X-9.3545 Y2.5301 Z-0.4815
G1 X-9.3536 Y2.5354 Z-0.4822
G1 X-9.3533 Y2.5408 Z-0.4829
G1 X-9.3536 Y2.5462 Z-0.4837
G1 X-9.3546 Y2.5516 Z-0.4844
G1 X-9.3562 Y2.5568 Z-0.4851
G1 X-9.3583 Y2.5617 Z-0.4859
G1 X-9.3611 Y2.5664 Z-0.4866
G1 X-9.3643 Y2.5708 Z-0.4873
G1 X-9.368 Y2.5747 Z-0.488
G1 X-9.3722 Y2.5782 Z-0.4888
G1 X-9.3767 Y2.5812 Z-0.4895
G1 X-9.3816 Y2.5836 Z-0.4902
G1 X-9.3867 Y2.5855 Z-0.4909
G1 X-9.392 Y2.5867 Z-0.4917
G1 X-9.3974 Y2.5873 Z-0.4924
G1 X-9.4028 Y2.5874 Z-0.4931
G1 X-9.4082 Y2.5867 Z-0.4938
G1 X-9.4135 Y2.5855 Z-0.4946
G1 X-9.4186 Y2.5836 Z-0.4953
G1 X-9.4234 Y2.5812 Z-0.496
G1 X-9.428 Y2.5783 Z-0.4967
G1 X-9.4321 Y2.5748 Z-0.4975
G1 X-9.4359 Y2.5709 Z-0.4982
G1 X-9.4391 Y2.5665 Z-0.4989
G1 X-9.4419 Y2.5618 Z-0.4996
G1 X-9.4441 Y2.5569 Z-0.5004
G1 X-9.4456 Y2.5517 Z-0.5011
G1 X-9.4466 Y2.5463 Z-0.5018
G1 X-9.447 Y2.5409 Z-0.5026
G1 X-9.4467 Y2.5355 Z-0.5033
G1 X-9.4458 Y2.5302 Z-0.504
G1 X-9.4443 Y2.5249 Z-0.5047
G1 X-9.4422 Y2.5199 Z-0.5055
G1 X-9.4395 Y2.5152 Z-0.5062
G1 X-9.4363 Y2.5108 Z-0.5069
G1 X-9.4326 Y2.5068 Z-0.5076
G1 X-9.4285 Y2.5033 Z-0.5084
G1 X-9.424 Y2.5003 Z-0.5091
G1 X-9.4192 Y2.4978 Z-0.5098
G1 X-9.4141 Y2.4959 Z-0.5105
G1 X-9.4089 Y2.4946 Z-0.5113
G1 X-9.4035 Y2.4939 Z-0.512
G1 X-9.3981 Y2.4938 Z-0.5127
G1 X-9.3927 Y2.4943 Z-0.5134
G1 X-9.3874 Y2.4955 Z-0.5142
G1 X-9.3822 Y2.4973 Z-0.5149
G1 X-9.3773 Y2.4996 Z-0.5156
G1 X-9.3728 Y2.5025 Z-0.5163
G1 X-9.3686 Y2.506 Z-0.5171
G1 X-9.3648 Y2.5099 Z-0.5178
G1 X-9.3614 Y2.5141 Z-0.5185
G1 X-9.3586 Y2.5188 Z-0.5193
G1 X-9.3564 Y2.5237 Z-0.52
G1 X-9.3548 Y2.5289 Z-0.5207
G1 X-9.3537 Y2.5342 Z-0.5214
G1 X-9.3533 Y2.5396 Z-0.5222
G1 X-9.3535 Y2.5451 Z-0.5229
G1 X-9.3543 Y2.5504 Z-0.5236
G1 X-9.3558 Y2.5557 Z-0.5243
G1 X-9.3578 Y2.5607 Z-0.5251
G1 X-9.3604 Y2.5654 Z-0.5258
G1 X-9.3636 Y2.5699 Z-0.5265
G1 X-9.3672 Y2.5739 Z-0.5272
G1 X-9.3713 Y2.5775 Z-0.528
G1 X-9.3757 Y2.5806 Z-0.5287
G1 X-9.3805 Y2.5831 Z-0.5294
G1 X-9.3856 Y2.5851 Z-0.5301
G1 X-9.3908 Y2.5865 Z-0.5309
G1 X-9.3962 Y2.5873 Z-0.5316
G1 X-9.4016 Y2.5874 Z-0.5323
G1 X-9.407 Y2.5869 Z-0.5331
G1 X-9.4123 Y2.5858 Z-0.5338
G1 X-9.4175 Y2.5841 Z-0.5345
G1 X-9.4224 Y2.5818 Z-0.5352
G1 X-9.427 Y2.579 Z-0.536
G1 X-9.4313 Y2.5756 Z-0.5367
G1 X-9.4351 Y2.5718 Z-0.5374
G1 X-9.4385 Y2.5675 Z-0.5381
G1 X-9.4413 Y2.5629 Z-0.5389
G1 X-9.4436 Y2.558 Z-0.5396
G1 X-9.4453 Y2.5528 Z-0.5403
G1 X-9.4465 Y2.5475 Z-0.541
G1 X-9.4469 Y2.5421 Z-0.5418
G1 X-9.4468 Y2.5367 Z-0.5425
G1 X-9.446 Y2.5313 Z-0.5432
G1 X-9.4447 Y2.5261 Z-0.5439
G1 X-9.4427 Y2.521 Z-0.5447
G1 X-9.4401 Y2.5162 Z-0.5454
G1 X-9.4371 Y2.5118 Z-0.5461
G1 X-9.4335 Y2.5077 Z-0.5468
G1 X-9.4295 Y2.504 Z-0.5476
G1 X-9.425 Y2.5009 Z-0.5483
G1 X-9.4203 Y2.4983 Z-0.549
G1 X-9.4153 Y2.4962 Z-0.5498
G1 X-9.41 Y2.4948 Z-0.5505
G1 X-9.4047 Y2.494 Z-0.5512
G1 X-9.3992 Y2.4937 Z-0.5519
G1 X-9.3938 Y2.4942 Z-0.5527
G1 X-9.3885 Y2.4952 Z-0.5534
G1 X-9.3833 Y2.4968 Z-0.5541
G1 X-9.3784 Y2.4991 Z-0.5548
G1 X-9.3737 Y2.5019 Z-0.5556
G1 X-9.3694 Y2.5052 Z-0.5563
G1 X-9.3655 Y2.509 Z-0.557
G1 X-9.3621 Y2.5132 Z-0.5577
G1 X-9.3592 Y2.5178 Z-0.5585
G1 X-9.3568 Y2.5226 Z-0.5592
G1 X-9.3551 Y2.5278 Z-0.5599
G1 X-9.3539 Y2.5331 Z-0.5606
G1 X-9.3533 Y2.5385 Z-0.5614
G1 X-9.3534 Y2.5439 Z-0.5621
G1 X-9.3541 Y2.5493 Z-0.5628
G1 X-9.3554 Y2.5545 Z-0.5635
G1 X-9.3573 Y2.5596 Z-0.5643
G1 X-9.3598 Y2.5644 Z-0.565
G1 X-9.3628 Y2.5689 Z-0.5657
G1 X-9.3664 Y2.5731 Z-0.5665
G1 X-9.3703 Y2.5767 Z-0.5672
G1 X-9.3747 Y2.5799 Z-0.5679
G1 X-9.3794 Y2.5826 Z-0.5686
G1 X-9.3844 Y2.5847 Z-0.5694
G1 X-9.3896 Y2.5862 Z-0.5701
G1 X-9.395 Y2.5871 Z-0.5708
G1 X-9.4004 Y2.5874 Z-0.5715
G1 X-9.4058 Y2.5871 Z-0.5723
G1 X-9.4112 Y2.5861 Z-0.573
G1 X-9.4164 Y2.5845 Z-0.5737
G1 X-9.4213 Y2.5824 Z-0.5744
G1 X-9.426 Y2.5796 Z-0.5752
G1 X-9.4304 Y2.5764 Z-0.5759
G1 X-9.4343 Y2.5726 Z-0.5766
G1 X-9.4378 Y2.5685 Z-0.5773
G1 X-9.4407 Y2.5639 Z-0.5781
G1 X-9.4432 Y2.5591 Z-0.5788
G1 X-9.445 Y2.554 Z-0.5795
G1 X-9.4463 Y2.5487 Z-0.5802
G1 X-9.4469 Y2.5433 Z-0.581
G1 Y2.5379 Z-0.5817
G1 X-9.4463 Y2.5325 Z-0.5824
G1 X-9.445 Y2.5272 Z-0.5832
G1 X-9.4432 Y2.5221 Z-0.5839
G1 X-9.4407 Y2.5172 Z-0.5846
G1 X-9.4378 Y2.5127 Z-0.5853
G1 X-9.4343 Y2.5085 Z-0.5861
G1 X-9.4304 Y2.5048 Z-0.5868
G1 X-9.426 Y2.5015 Z-0.5875
G1 X-9.4213 Y2.4988 Z-0.5882
G1 X-9.4164 Y2.4966 Z-0.589
G1 X-9.4112 Y2.4951 Z-0.5897
G1 X-9.4058 Y2.4941 Z-0.5904
G1 X-9.4004 Y2.4937 Z-0.5911
G1 X-9.395 Y2.494 Z-0.5919
G1 X-9.3897 Y2.4949 Z-0.5926
G1 X-9.3844 Y2.4964 Z-0.5933
G1 X-9.3794 Y2.4985 Z-0.594
G1 X-9.3747 Y2.5012 Z-0.5948
G1 X-9.3703 Y2.5044 Z-0.5955
G1 X-9.3664 Y2.5081 Z-0.5962
G1 X-9.3628 Y2.5122 Z-0.597
G1 X-9.3598 Y2.5167 Z-0.5977
G1 X-9.3573 Y2.5215 Z-0.5984
G1 X-9.3554 Y2.5266 Z-0.5991
G1 X-9.3541 Y2.5319 Z-0.5999
G1 X-9.3534 Y2.5373 Z-0.6006
G1 X-9.3533 Y2.5427 Z-0.6013
G1 X-9.3539 Y2.5481 Z-0.602
G1 X-9.3551 Y2.5534 Z-0.6028
G1 X-9.3568 Y2.5585 Z-0.6035
G1 X-9.3592 Y2.5634 Z-0.6042
G1 X-9.3621 Y2.568 Z-0.6049
G1 X-9.3655 Y2.5722 Z-0.6057
G1 X-9.3694 Y2.576 Z-0.6064
G1 X-9.3737 Y2.5793 Z-0.6071
G1 X-9.3784 Y2.5821 Z-0.6078
G1 X-9.3833 Y2.5843 Z-0.6086
G1 X-9.3885 Y2.586 Z-0.6093
G1 X-9.3938 Y2.587 Z-0.61
G1 X-9.3992 Y2.5874 Z-0.6107
G1 X-9.4047 Y2.5872 Z-0.6115
G1 X-9.41 Y2.5864 Z-0.6122
G1 X-9.4152 Y2.5849 Z-0.6129
G1 X-9.4203 Y2.5829 Z-0.6137
G1 X-9.425 Y2.5803 Z-0.6144
G1 X-9.4294 Y2.5771 Z-0.6151
G1 X-9.4335 Y2.5735 Z-0.6158
G1 X-9.4371 Y2.5694 Z-0.6166
G1 X-9.4401 Y2.5649 Z-0.6173
G1 X-9.4427 Y2.5602 Z-0.618
G1 X-9.4447 Y2.5551 Z-0.6187
G1 X-9.446 Y2.5498 Z-0.6195
G1 X-9.4468 Y2.5445 Z-0.6202
G1 X-9.4469 Y2.5391 Z-0.6209
G1 X-9.4465 Y2.5336 Z-0.6216
G1 X-9.4453 Y2.5283 Z-0.6224
G1 X-9.4436 Y2.5232 Z-0.6231
G1 X-9.4413 Y2.5183 Z-0.6238
G1 X-9.4385 Y2.5137 Z-0.6245
G1 X-9.4351 Y2.5094 Z-0.6253
G1 X-9.4313 Y2.5056 Z-0.626
G1 X-9.427 Y2.5022 Z-0.6267
G1 X-9.4224 Y2.4994 Z-0.6274
G1 X-9.4175 Y2.4971 Z-0.6282
G1 X-9.4123 Y2.4953 Z-0.6289
G1 X-9.407 Y2.4942 Z-0.6296
G1 X-9.4016 Y2.4938 Z-0.6304
G1 X-9.3962 Y2.4939 Z-0.6311
G1 X-9.3908 Y2.4947 Z-0.6318
G1 X-9.3856 Y2.496 Z-0.6325
G1 X-9.3805 Y2.498 Z-0.6333
G1 X-9.3757 Y2.5006 Z-0.634
G1 X-9.3713 Y2.5037 Z-0.6347
G1 X-9.3672 Y2.5073 Z-0.6354
G1 X-9.3636 Y2.5113 Z-0.6362
G1 X-9.3604 Y2.5157 Z-0.6369
G1 X-9.3578 Y2.5205 Z-0.6376
G1 X-9.3558 Y2.5255 Z-0.6383
G1 X-9.3543 Y2.5307 Z-0.6391
G1 X-9.3535 Y2.5361 Z-0.6398
G1 X-9.3533 Y2.5415 Z-0.6405
G1 X-9.3537 Y2.5469 Z-0.6412
G1 X-9.3548 Y2.5522 Z-0.642
G1 X-9.3564 Y2.5574 Z-0.6427
G1 X-9.3586 Y2.5624 Z-0.6434
G1 X-9.3614 Y2.567 Z-0.6441
G1 X-9.3648 Y2.5713 Z-0.6449
G1 X-9.3685 Y2.5752 Z-0.6456
G1 X-9.3728 Y2.5786 Z-0.6463
G1 X-9.3773 Y2.5815 Z-0.6471
G1 X-9.3822 Y2.5839 Z-0.6478
G1 X-9.3874 Y2.5857 Z-0.6485
G1 X-9.3927 Y2.5868 Z-0.6492
G1 X-9.398 Y2.5874 Z-0.65
G1 X-9.4035 Y2.5873 Z-0.6507
G1 X-9.4089 Y2.5866 Z-0.6514
G1 X-9.4141 Y2.5853 Z-0.6521
G1 X-9.4192 Y2.5834 Z-0.6529
G1 X-9.424 Y2.5809 Z-0.6536
G1 X-9.4285 Y2.5778 Z-0.6543
G1 X-9.4326 Y2.5743 Z-0.655
G1 X-9.4363 Y2.5703 Z-0.6558
G1 X-9.4395 Y2.5659 Z-0.6565
G1 X-9.4422 Y2.5612 Z-0.6572
G1 X-9.4443 Y2.5562 Z-0.6579
G1 X-9.4458 Y2.551 Z-0.6587
G1 X-9.4467 Y2.5457 Z-0.6594
G1 X-9.447 Y2.5402 Z-0.6601
G1 X-9.4466 Y2.5348 Z-0.6609
G1 X-9.4456 Y2.5295 Z-0.6616
G1 X-9.4441 Y2.5243 Z-0.6623
G1 X-9.4419 Y2.5193 Z-0.663
G1 X-9.4391 Y2.5146 Z-0.6638
G1 X-9.4359 Y2.5103 Z-0.6645
G1 X-9.4321 Y2.5064 Z-0.6652
G1 X-9.428 Y2.5029 Z-0.6659
G1 X-9.4234 Y2.4999 Z-0.6667
G1 X-9.4186 Y2.4975 Z-0.6674
G1 X-9.4135 Y2.4957 Z-0.6681
G1 X-9.4082 Y2.4944 Z-0.6688
G1 X-9.4028 Y2.4938 Z-0.6696
G1 X-9.3974 Z-0.6703
G1 X-9.392 Y2.4944 Z-0.671
G1 X-9.3867 Y2.4957 Z-0.6717
G1 X-9.3816 Y2.4975 Z-0.6725
G1 X-9.3767 Y2.5 Z-0.6732
G1 X-9.3722 Y2.503 Z-0.6739
G1 X-9.368 Y2.5064 Z-0.6746
G1 X-9.3643 Y2.5104 Z-0.6754
G1 X-9.3611 Y2.5147 Z-0.6761
G1 X-9.3583 Y2.5194 Z-0.6768
G1 X-9.3562 Y2.5244 Z-0.6776
G1 X-9.3546 Y2.5296 Z-0.6783
G1 X-9.3536 Y2.5349 Z-0.679
G1 X-9.3533 Y2.5403 Z-0.6797
G1 X-9.3536 Y2.5457 Z-0.6805
G1 X-9.3545 Y2.5511 Z-0.6812
G1 X-9.356 Y2.5563 Z-0.6819
G1 X-9.3581 Y2.5613 Z-0.6826
G1 X-9.3608 Y2.566 Z-0.6834
G1 X-9.364 Y2.5704 Z-0.6841
G1 X-9.3677 Y2.5744 Z-0.6848
G1 X-9.3718 Y2.5779 Z-0.6855
G1 X-9.3763 Y2.5809 Z-0.6863
G1 X-9.3811 Y2.5834 Z-0.687
G1 X-9.3862 Y2.5853 Z-0.6877
G1 X-9.3915 Y2.5866 Z-0.6884
G1 X-9.3969 Y2.5873 Z-0.6892
G1 X-9.4023 Y2.5874 Z-0.6899
G1 X-9.4077 Y2.5868 Z-0.6906
G1 X-9.413 Y2.5856 Z-0.6913
G1 X-9.4181 Y2.5838 Z-0.6921
G1 X-9.423 Y2.5815 Z-0.6928
G1 X-9.4276 Y2.5786 Z-0.6935
G1 X-9.4318 Y2.5751 Z-0.6943
G1 X-9.4356 Y2.5712 Z-0.695
G1 X-9.4389 Y2.5669 Z-0.6957
G1 X-9.4416 Y2.5623 Z-0.6964
G1 X-9.4439 Y2.5573 Z-0.6972
G1 X-9.4455 Y2.5522 Z-0.6979
G1 X-9.4466 Y2.5468 Z-0.6986
G1 X-9.447 Y2.5414 Z-0.6993
G1 X-9.4467 Y2.536 Z-0.7001
G1 X-9.4459 Y2.5306 Z-0.7008
G1 X-9.4445 Y2.5254 Z-0.7015
G1 X-9.4424 Y2.5204 Z-0.7022
G1 X-9.4398 Y2.5156 Z-0.703
G1 X-9.4366 Y2.5112 Z-0.7037
G1 X-9.433 Y2.5072 Z-0.7044
G1 X-9.4289 Y2.5036 Z-0.7051
G1 X-9.4244 Y2.5005 Z-0.7059
G1 X-9.4197 Y2.498 Z-0.7066
G1 X-9.4146 Y2.496 Z-0.7073
G1 X-9.4093 Y2.4946 Z-0.7081
G1 X-9.404 Y2.4939 Z-0.7088
G1 X-9.3985 Y2.4938 Z-0.7095
G1 X-9.3931 Y2.4943 Z-0.7102
G1 X-9.3878 Y2.4954 Z-0.711
G1 X-9.3827 Y2.4971 Z-0.7117
G1 X-9.3778 Y2.4994 Z-0.7124
G1 X-9.3732 Y2.5023 Z-0.7131
G1 X-9.3689 Y2.5056 Z-0.7139
G1 X-9.3651 Y2.5095 Z-0.7146
G1 X-9.3617 Y2.5137 Z-0.7153
G1 X-9.3589 Y2.5184 Z-0.716
G1 X-9.3566 Y2.5233 Z-0.7168
G1 X-9.3549 Y2.5284 Z-0.7175
G1 X-9.3538 Y2.5337 Z-0.7182
G1 X-9.3533 Y2.5391 Z-0.7189
G1 X-9.3534 Y2.5446 Z-0.7197
G1 X-9.3542 Y2.5499 Z-0.7204
G1 X-9.3556 Y2.5552 Z-0.7211
G1 X-9.3576 Y2.5602 Z-0.7218
G1 X-9.3602 Y2.565 Z-0.7226
G1 X-9.3632 Y2.5695 Z-0.7233
G1 X-9.3668 Y2.5735 Z-0.724
G1 X-9.3709 Y2.5772 Z-0.7248
G1 X-9.3753 Y2.5803 Z-0.7255
G1 X-9.3801 Y2.5829 Z-0.7262
G1 X-9.3851 Y2.585 Z-0.7269
G1 X-9.3903 Y2.5864 Z-0.7277
G1 X-9.3957 Y2.5872 Z-0.7284
G1 X-9.4011 Y2.5874 Z-0.7291
G1 X-9.4065 Y2.587 Z-0.7298
G1 X-9.4118 Y2.5859 Z-0.7306
G1 X-9.417 Y2.5843 Z-0.7313
G1 X-9.4219 Y2.582 Z-0.732
G1 X-9.4266 Y2.5792 Z-0.7327
G1 X-9.4309 Y2.5759 Z-0.7335
G1 X-9.4348 Y2.5721 Z-0.7342
G1 X-9.4382 Y2.5679 Z-0.7349
G1 X-9.4411 Y2.5633 Z-0.7356
G1 X-9.4434 Y2.5584 Z-0.7364
G1 X-9.4452 Y2.5533 Z-0.7371
G1 X-9.4464 Y2.548 Z-0.7378
G1 X-9.4469 Y2.5426 Z-0.7385
G1 Y2.5372 Z-0.7393
G1 X-9.4461 Y2.5318 Z-0.74
G3 X-9.3913 Y2.4946 I0.046 J0.0088
G3 X-9.3541 Y2.5494 I-0.0088 J0.046
G3 X-9.4089 Y2.5866 I-0.046 J-0.0088
G3 X-9.4461 Y2.5318 I0.0088 J-0.046
G3 X-9.4363 Y2.5168 I0.023 J0.0044
G3 X-9.4187 Y2.5132 I0.0132 J0.0194
G1 X-9.4065 Y2.5155
G1 X-9.4026 Y2.5163 Z-0.7397
G1 X-9.3989 Y2.517 Z-0.7388
G1 X-9.3953 Y2.5176 Z-0.7373
G1 X-9.392 Y2.5183 Z-0.7352
G1 X-9.3891 Y2.5188 Z-0.7327
G1 X-9.3866 Y2.5193 Z-0.7297
G1 X-9.3846 Y2.5197 Z-0.7264
G1 X-9.3831 Y2.52 Z-0.7227
G1 X-9.3822 Y2.5201 Z-0.7189
G1 X-9.3819 Y2.5202 Z-0.715
G0 Z0.2
G0 X-12.159 Y2.5547
G0 Z0.04
G1 Z-0.015 F30.
G1 Y2.5543 Z-0.0189
G1 Y2.5534 Z-0.0227
G1 Y2.5519 Z-0.0264
G1 Y2.5499 Z-0.0297
G1 Y2.5473 Z-0.0327
G1 Y2.5443 Z-0.0352
G1 Y2.541 Z-0.0373
G1 Y2.5374 Z-0.0388
G1 Y2.5336 Z-0.0397
G1 Y2.5297 Z-0.04
G1 Y2.5172
G3 X-12.1356 Y2.4937 I0.0234 J0
G1 X-12.1301 Y2.494 Z-0.0407
G1 X-12.1248 Y2.495 Z-0.0415
G1 X-12.1196 Y2.4965 Z-0.0422
G1 X-12.1146 Y2.4987 Z-0.0429
G1 X-12.1099 Y2.5014 Z-0.0436
G1 X-12.1055 Y2.5046 Z-0.0444
G1 X-12.1016 Y2.5083 Z-0.0451
G1 X-12.0981 Y2.5125 Z-0.0458
G1 X-12.0951 Y2.517 Z-0.0465
G1 X-12.0926 Y2.5218 Z-0.0473
G1 X-12.0907 Y2.5269 Z-0.048
G1 X-12.0895 Y2.5322 Z-0.0487
G1 X-12.0888 Y2.5376 Z-0.0494
G1 Y2.543 Z-0.0502
G1 X-12.0894 Y2.5484 Z-0.0509
G1 X-12.0906 Y2.5537 Z-0.0516
G1 X-12.0924 Y2.5588 Z-0.0523
G1 X-12.0948 Y2.5637 Z-0.0531
G1 X-12.0977 Y2.5682 Z-0.0538
G1 X-12.1012 Y2.5724 Z-0.0545
G1 X-12.1051 Y2.5762 Z-0.0552
G1 X-12.1094 Y2.5795 Z-0.056
G1 X-12.1141 Y2.5822 Z-0.0567
G1 X-12.119 Y2.5844 Z-0.0574
G1 X-12.1242 Y2.586 Z-0.0582
G1 X-12.1296 Y2.587 Z-0.0589
G1 X-12.135 Y2.5874 Z-0.0596
G1 X-12.1404 Y2.5872 Z-0.0603
G1 X-12.1457 Y2.5863 Z-0.0611
G1 X-12.151 Y2.5848 Z-0.0618
G1 X-12.156 Y2.5827 Z-0.0625
G1 X-12.1607 Y2.5801 Z-0.0632
G1 X-12.1651 Y2.5769 Z-0.064
G1 X-12.1691 Y2.5733 Z-0.0647
G1 X-12.1727 Y2.5692 Z-0.0654
G1 X-12.1757 Y2.5647 Z-0.0661
G1 X-12.1782 Y2.5599 Z-0.0669
G1 X-12.1802 Y2.5548 Z-0.0676
G1 X-12.1815 Y2.5496 Z-0.0683
G1 X-12.1823 Y2.5442 Z-0.069
G1 X-12.1824 Y2.5388 Z-0.0698
G1 X-12.1818 Y2.5334 Z-0.0705
G1 X-12.1807 Y2.528 Z-0.0712
G1 X-12.179 Y2.5229 Z-0.072
G1 X-12.1766 Y2.518 Z-0.0727
G1 X-12.1737 Y2.5134 Z-0.0734
G1 X-12.1703 Y2.5092 Z-0.0741
G1 X-12.1665 Y2.5054 Z-0.0749
G1 X-12.1622 Y2.502 Z-0.0756
G1 X-12.1576 Y2.4992 Z-0.0763
G1 X-12.1526 Y2.497 Z-0.077
G1 X-12.1475 Y2.4953 Z-0.0778
G1 X-12.1422 Y2.4942 Z-0.0785
G1 X-12.1367 Y2.4937 Z-0.0792
G1 X-12.1313 Y2.4939 Z-0.0799
G1 X-12.126 Y2.4947 Z-0.0807
G1 X-12.1207 Y2.4961 Z-0.0814
G1 X-12.1157 Y2.4982 Z-0.0821
G1 X-12.1109 Y2.5007 Z-0.0828
G1 X-12.1065 Y2.5039 Z-0.0836
G1 X-12.1024 Y2.5075 Z-0.0843
G1 X-12.0988 Y2.5115 Z-0.085
G1 X-12.0957 Y2.516 Z-0.0857
G1 X-12.0931 Y2.5207 Z-0.0865
G1 X-12.0911 Y2.5258 Z-0.0872
G1 X-12.0897 Y2.531 Z-0.0879
G1 X-12.0889 Y2.5364 Z-0.0887
G1 X-12.0887 Y2.5418 Z-0.0894
G1 X-12.0892 Y2.5472 Z-0.0901
G1 X-12.0903 Y2.5525 Z-0.0908
G1 X-12.0919 Y2.5577 Z-0.0916
G1 X-12.0942 Y2.5626 Z-0.0923
G1 X-12.097 Y2.5673 Z-0.093
G1 X-12.1004 Y2.5715 Z-0.0937
G1 X-12.1042 Y2.5754 Z-0.0945
G1 X-12.1084 Y2.5788 Z-0.0952
G1 X-12.113 Y2.5817 Z-0.0959
G1 X-12.1179 Y2.584 Z-0.0966
G1 X-12.1231 Y2.5857 Z-0.0974
G1 X-12.1284 Y2.5869 Z-0.0981
G1 X-12.1338 Y2.5874 Z-0.0988
G1 X-12.1392 Y2.5873 Z-0.0995
G1 X-12.1446 Y2.5866 Z-0.1003
G1 X-12.1498 Y2.5852 Z-0.101
G1 X-12.1549 Y2.5833 Z-0.1017
G1 X-12.1597 Y2.5807 Z-0.1024
G1 X-12.1642 Y2.5777 Z-0.1032
G1 X-12.1683 Y2.5741 Z-0.1039
G1 X-12.1719 Y2.5701 Z-0.1046
G1 X-12.1751 Y2.5657 Z-0.1054
G1 X-12.1777 Y2.561 Z-0.1061
G1 X-12.1798 Y2.5559 Z-0.1068
G1 X-12.1813 Y2.5507 Z-0.1075
G1 X-12.1822 Y2.5454 Z-0.1083
G1 X-12.1824 Y2.5399 Z-0.109
G1 X-12.182 Y2.5345 Z-0.1097
G1 X-12.181 Y2.5292 Z-0.1104
G1 X-12.1794 Y2.524 Z-0.1112
G1 X-12.1772 Y2.5191 Z-0.1119
G1 X-12.1744 Y2.5144 Z-0.1126
G1 X-12.1711 Y2.5101 Z-0.1133
G1 X-12.1674 Y2.5062 Z-0.1141
G1 X-12.1632 Y2.5027 Z-0.1148
G1 X-12.1586 Y2.4998 Z-0.1155
G1 X-12.1537 Y2.4974 Z-0.1162
G1 X-12.1486 Y2.4956 Z-0.117
G1 X-12.1433 Y2.4944 Z-0.1177
G1 X-12.1379 Y2.4938 Z-0.1184
G1 X-12.1325 Z-0.1191
G1 X-12.1271 Y2.4945 Z-0.1199
G1 X-12.1218 Y2.4958 Z-0.1206
G1 X-12.1168 Y2.4977 Z-0.1213
G1 X-12.1119 Y2.5001 Z-0.1221
G1 X-12.1074 Y2.5031 Z-0.1228
G1 X-12.1033 Y2.5066 Z-0.1235
G1 X-12.0996 Y2.5106 Z-0.1242
G1 X-12.0963 Y2.515 Z-0.125
G1 X-12.0936 Y2.5197 Z-0.1257
G1 X-12.0915 Y2.5247 Z-0.1264
G1 X-12.09 Y2.5299 Z-0.1271
G1 X-12.089 Y2.5352 Z-0.1279
G1 X-12.0887 Y2.5406 Z-0.1286
G1 X-12.089 Y2.546 Z-0.1293
G1 X-12.09 Y2.5514 Z-0.13
G1 X-12.0915 Y2.5566 Z-0.1308
G1 X-12.0937 Y2.5616 Z-0.1315
G1 X-12.0964 Y2.5663 Z-0.1322
G1 X-12.0996 Y2.5706 Z-0.1329
G1 X-12.1033 Y2.5746 Z-0.1337
G1 X-12.1075 Y2.5781 Z-0.1344
G1 X-12.112 Y2.5811 Z-0.1351
G1 X-12.1168 Y2.5835 Z-0.1359
G1 X-12.1219 Y2.5854 Z-0.1366
G1 X-12.1272 Y2.5867 Z-0.1373
G1 X-12.1326 Y2.5873 Z-0.138
G1 X-12.138 Y2.5874 Z-0.1388
G1 X-12.1434 Y2.5868 Z-0.1395
G1 X-12.1487 Y2.5855 Z-0.1402
G1 X-12.1538 Y2.5837 Z-0.1409
G1 X-12.1587 Y2.5813 Z-0.1417
G1 X-12.1632 Y2.5784 Z-0.1424
G1 X-12.1674 Y2.5749 Z-0.1431
G1 X-12.1712 Y2.571 Z-0.1438
G1 X-12.1745 Y2.5667 Z-0.1446
G1 X-12.1772 Y2.562 Z-0.1453
G1 X-12.1794 Y2.5571 Z-0.146
G1 X-12.181 Y2.5519 Z-0.1467
G1 X-12.182 Y2.5465 Z-0.1475
G1 X-12.1824 Y2.5411 Z-0.1482
G1 X-12.1822 Y2.5357 Z-0.1489
G1 X-12.1813 Y2.5303 Z-0.1496
G1 X-12.1798 Y2.5251 Z-0.1504
G1 X-12.1777 Y2.5201 Z-0.1511
G1 X-12.1751 Y2.5154 Z-0.1518
G1 X-12.1719 Y2.511 Z-0.1526
G1 X-12.1682 Y2.507 Z-0.1533
G1 X-12.1641 Y2.5034 Z-0.154
G1 X-12.1596 Y2.5004 Z-0.1547
G1 X-12.1548 Y2.4979 Z-0.1555
G1 X-12.1497 Y2.4959 Z-0.1562
G1 X-12.1445 Y2.4946 Z-0.1569
G1 X-12.1391 Y2.4939 Z-0.1576
G1 X-12.1337 Y2.4938 Z-0.1584
G1 X-12.1283 Y2.4943 Z-0.1591
G1 X-12.123 Y2.4954 Z-0.1598
G1 X-12.1178 Y2.4972 Z-0.1605
G1 X-12.113 Y2.4995 Z-0.1613
G1 X-12.1084 Y2.5024 Z-0.162
G1 X-12.1041 Y2.5058 Z-0.1627
G1 X-12.1003 Y2.5097 Z-0.1634
G1 X-12.097 Y2.514 Z-0.1642
G1 X-12.0942 Y2.5186 Z-0.1649
G1 X-12.0919 Y2.5236 Z-0.1656
G1 X-12.0902 Y2.5287 Z-0.1663
G1 X-12.0892 Y2.534 Z-0.1671
G1 X-12.0887 Y2.5394 Z-0.1678
G1 X-12.0889 Y2.5449 Z-0.1685
G1 X-12.0897 Y2.5502 Z-0.1693
G1 X-12.0911 Y2.5555 Z-0.17
G1 X-12.0932 Y2.5605 Z-0.1707
G1 X-12.0957 Y2.5653 Z-0.1714
G1 X-12.0989 Y2.5697 Z-0.1722
G1 X-12.1025 Y2.5738 Z-0.1729
G1 X-12.1065 Y2.5774 Z-0.1736
G1 X-12.111 Y2.5805 Z-0.1743
G1 X-12.1158 Y2.583 Z-0.1751
G1 X-12.1208 Y2.585 Z-0.1758
G1 X-12.126 Y2.5865 Z-0.1765
G1 X-12.1314 Y2.5872 Z-0.1772
G1 X-12.1368 Y2.5874 Z-0.178
G1 X-12.1422 Y2.5869 Z-0.1787
G1 X-12.1476 Y2.5859 Z-0.1794
G1 X-12.1527 Y2.5842 Z-0.1801
G1 X-12.1576 Y2.5819 Z-0.1809
G1 X-12.1623 Y2.5791 Z-0.1816
G1 X-12.1665 Y2.5757 Z-0.1823
G1 X-12.1704 Y2.5719 Z-0.1831
G1 X-12.1738 Y2.5677 Z-0.1838
G1 X-12.1767 Y2.5631 Z-0.1845
G1 X-12.179 Y2.5582 Z-0.1852
G1 X-12.1807 Y2.553 Z-0.186
G1 X-12.1819 Y2.5477 Z-0.1867
G1 X-12.1824 Y2.5423 Z-0.1874
G1 X-12.1823 Y2.5369 Z-0.1881
G1 X-12.1815 Y2.5315 Z-0.1889
G1 X-12.1802 Y2.5263 Z-0.1896
G1 X-12.1782 Y2.5212 Z-0.1903
G1 X-12.1757 Y2.5164 Z-0.191
G1 X-12.1726 Y2.5119 Z-0.1918
G1 X-12.1691 Y2.5078 Z-0.1925
G1 X-12.165 Y2.5042 Z-0.1932
G1 X-12.1606 Y2.501 Z-0.1939
G1 X-12.1559 Y2.4984 Z-0.1947
G1 X-12.1509 Y2.4963 Z-0.1954
G1 X-12.1456 Y2.4948 Z-0.1961
G1 X-12.1403 Y2.494 Z-0.1968
G1 X-12.1349 Y2.4937 Z-0.1976
G1 X-12.1295 Y2.4941 Z-0.1983
G1 X-12.1241 Y2.4951 Z-0.199
G1 X-12.1189 Y2.4968 Z-0.1998
G1 X-12.114 Y2.499 Z-0.2005
G1 X-12.1093 Y2.5018 Z-0.2012
G1 X-12.105 Y2.5051 Z-0.2019
G1 X-12.1011 Y2.5088 Z-0.2027
G1 X-12.0977 Y2.513 Z-0.2034
G1 X-12.0947 Y2.5176 Z-0.2041
G1 X-12.0924 Y2.5225 Z-0.2048
G1 X-12.0906 Y2.5276 Z-0.2056
G1 X-12.0893 Y2.5329 Z-0.2063
G1 X-12.0888 Y2.5383 Z-0.207
G1 Y2.5437 Z-0.2077
G1 X-12.0895 Y2.5491 Z-0.2085
G1 X-12.0908 Y2.5543 Z-0.2092
G1 X-12.0927 Y2.5594 Z-0.2099
G1 X-12.0951 Y2.5643 Z-0.2106
G1 X-12.0981 Y2.5688 Z-0.2114
G1 X-12.1017 Y2.5729 Z-0.2121
G1 X-12.1056 Y2.5766 Z-0.2128
G1 X-12.11 Y2.5798 Z-0.2135
G1 X-12.1147 Y2.5825 Z-0.2143
G1 X-12.1197 Y2.5847 Z-0.215
G1 X-12.1249 Y2.5862 Z-0.2157
G1 X-12.1302 Y2.5871 Z-0.2165
G1 X-12.1357 Y2.5874 Z-0.2172
G1 X-12.1411 Y2.5871 Z-0.2179
G1 X-12.1464 Y2.5862 Z-0.2186
G1 X-12.1516 Y2.5846 Z-0.2194
G1 X-12.1566 Y2.5824 Z-0.2201
G1 X-12.1613 Y2.5797 Z-0.2208
G1 X-12.1656 Y2.5765 Z-0.2215
G1 X-12.1696 Y2.5728 Z-0.2223
G1 X-12.1731 Y2.5686 Z-0.223
G1 X-12.1761 Y2.5641 Z-0.2237
G1 X-12.1785 Y2.5592 Z-0.2244
G1 X-12.1804 Y2.5542 Z-0.2252
G1 X-12.1817 Y2.5489 Z-0.2259
G1 X-12.1823 Y2.5435 Z-0.2266
G1 Y2.5381 Z-0.2273
G1 X-12.1817 Y2.5327 Z-0.2281
G1 X-12.1805 Y2.5274 Z-0.2288
G1 X-12.1787 Y2.5223 Z-0.2295
G1 X-12.1763 Y2.5174 Z-0.2302
G1 X-12.1733 Y2.5129 Z-0.231
G1 X-12.1699 Y2.5087 Z-0.2317
G1 X-12.166 Y2.5049 Z-0.2324
G1 X-12.1616 Y2.5016 Z-0.2332
G1 X-12.1569 Y2.4989 Z-0.2339
G1 X-12.152 Y2.4967 Z-0.2346
G1 X-12.1468 Y2.4951 Z-0.2353
G1 X-12.1415 Y2.4941 Z-0.2361
G1 X-12.1361 Y2.4937 Z-0.2368
G1 X-12.1306 Y2.494 Z-0.2375
G1 X-12.1253 Y2.4949 Z-0.2382
G1 X-12.1201 Y2.4964 Z-0.239
G1 X-12.1151 Y2.4985 Z-0.2397
G1 X-12.1103 Y2.5011 Z-0.2404
G1 X-12.1059 Y2.5043 Z-0.2411
G1 X-12.1019 Y2.508 Z-0.2419
G1 X-12.0984 Y2.5121 Z-0.2426
G1 X-12.0953 Y2.5166 Z-0.2433
G1 X-12.0928 Y2.5214 Z-0.244
G1 X-12.0909 Y2.5264 Z-0.2448
G1 X-12.0896 Y2.5317 Z-0.2455
G1 X-12.0888 Y2.5371 Z-0.2462
G1 X-12.0887 Y2.5425 Z-0.247
G1 X-12.0893 Y2.5479 Z-0.2477
G1 X-12.0904 Y2.5532 Z-0.2484
G1 X-12.0922 Y2.5583 Z-0.2491
G1 X-12.0945 Y2.5632 Z-0.2499
G1 X-12.0974 Y2.5678 Z-0.2506
G1 X-12.1008 Y2.572 Z-0.2513
G1 X-12.1047 Y2.5758 Z-0.252
G1 X-12.109 Y2.5792 Z-0.2528
G1 X-12.1136 Y2.582 Z-0.2535
G1 X-12.1186 Y2.5842 Z-0.2542
G1 X-12.1237 Y2.5859 Z-0.2549
G1 X-12.1291 Y2.587 Z-0.2557
G1 X-12.1345 Y2.5874 Z-0.2564
G1 X-12.1399 Y2.5872 Z-0.2571
G1 X-12.1453 Y2.5864 Z-0.2578
G1 X-12.1505 Y2.585 Z-0.2586
G1 X-12.1555 Y2.583 Z-0.2593
G1 X-12.1603 Y2.5804 Z-0.26
G1 X-12.1647 Y2.5772 Z-0.2607
G1 X-12.1688 Y2.5736 Z-0.2615
G1 X-12.1724 Y2.5696 Z-0.2622
G1 X-12.1755 Y2.5651 Z-0.2629
G1 X-12.178 Y2.5603 Z-0.2637
G1 X-12.18 Y2.5553 Z-0.2644
G1 X-12.1814 Y2.55 Z-0.2651
G1 X-12.1822 Y2.5447 Z-0.2658
G1 X-12.1824 Y2.5392 Z-0.2666
G1 X-12.1819 Y2.5338 Z-0.2673
G1 X-12.1808 Y2.5285 Z-0.268
G1 X-12.1791 Y2.5234 Z-0.2687
G1 X-12.1769 Y2.5184 Z-0.2695
G1 X-12.174 Y2.5138 Z-0.2702
G1 X-12.1707 Y2.5096 Z-0.2709
G1 X-12.1668 Y2.5057 Z-0.2716
G1 X-12.1626 Y2.5023 Z-0.2724
G1 X-12.158 Y2.4995 Z-0.2731
G1 X-12.1531 Y2.4971 Z-0.2738
G1 X-12.1479 Y2.4954 Z-0.2745
G1 X-12.1426 Y2.4943 Z-0.2753
G1 X-12.1372 Y2.4938 Z-0.276
G1 X-12.1318 Y2.4939 Z-0.2767
G1 X-12.1264 Y2.4946 Z-0.2774
G1 X-12.1212 Y2.496 Z-0.2782
G1 X-12.1161 Y2.4979 Z-0.2789
G1 X-12.1113 Y2.5005 Z-0.2796
G1 X-12.1069 Y2.5036 Z-0.2804
G1 X-12.1028 Y2.5071 Z-0.2811
G1 X-12.0991 Y2.5111 Z-0.2818
G1 X-12.096 Y2.5155 Z-0.2825
G1 X-12.0933 Y2.5203 Z-0.2833
G1 X-12.0913 Y2.5253 Z-0.284
G1 X-12.0898 Y2.5305 Z-0.2847
G1 X-12.0889 Y2.5359 Z-0.2854
G1 X-12.0887 Y2.5413 Z-0.2862
G1 X-12.0891 Y2.5467 Z-0.2869
G1 X-12.0901 Y2.5521 Z-0.2876
G1 X-12.0918 Y2.5572 Z-0.2883
G1 X-12.094 Y2.5622 Z-0.2891
G1 X-12.0968 Y2.5668 Z-0.2898
G1 X-12.1001 Y2.5712 Z-0.2905
G1 X-12.1038 Y2.5751 Z-0.2912
G1 X-12.108 Y2.5785 Z-0.292
G1 X-12.1126 Y2.5814 Z-0.2927
G1 X-12.1175 Y2.5838 Z-0.2934
G1 X-12.1226 Y2.5856 Z-0.2941
G1 X-12.1279 Y2.5868 Z-0.2949
G1 X-12.1333 Y2.5874 Z-0.2956
G1 X-12.1387 Y2.5873 Z-0.2963
G1 X-12.1441 Y2.5866 Z-0.2971
G1 X-12.1494 Y2.5853 Z-0.2978
G1 X-12.1545 Y2.5835 Z-0.2985
G1 X-12.1593 Y2.581 Z-0.2992
G1 X-12.1638 Y2.578 Z-0.3
G1 X-12.1679 Y2.5745 Z-0.3007
G1 X-12.1716 Y2.5705 Z-0.3014
G1 X-12.1748 Y2.5661 Z-0.3021
G1 X-12.1775 Y2.5614 Z-0.3029
G1 X-12.1797 Y2.5564 Z-0.3036
G1 X-12.1812 Y2.5512 Z-0.3043
G1 X-12.1821 Y2.5459 Z-0.305
G1 X-12.1824 Y2.5404 Z-0.3058
G1 X-12.1821 Y2.535 Z-0.3065
G1 X-12.1811 Y2.5297 Z-0.3072
G1 X-12.1796 Y2.5245 Z-0.3079
G1 X-12.1774 Y2.5195 Z-0.3087
G1 X-12.1747 Y2.5148 Z-0.3094
G1 X-12.1714 Y2.5105 Z-0.3101
G1 X-12.1677 Y2.5065 Z-0.3109
G1 X-12.1636 Y2.503 Z-0.3116
G1 X-12.159 Y2.5 Z-0.3123
G1 X-12.1542 Y2.4976 Z-0.313
G1 X-12.1491 Y2.4957 Z-0.3138
G1 X-12.1438 Y2.4945 Z-0.3145
G1 X-12.1384 Y2.4938 Z-0.3152
G1 X-12.133 Z-0.3159
G1 X-12.1276 Y2.4944 Z-0.3167
G1 X-12.1223 Y2.4956 Z-0.3174
G1 X-12.1172 Y2.4975 Z-0.3181
G1 X-12.1123 Y2.4999 Z-0.3188
G1 X-12.1078 Y2.5028 Z-0.3196
G1 X-12.1036 Y2.5063 Z-0.3203
G1 X-12.0999 Y2.5102 Z-0.321
G1 X-12.0966 Y2.5146 Z-0.3217
G1 X-12.0939 Y2.5192 Z-0.3225
G1 X-12.0917 Y2.5242 Z-0.3232
G1 X-12.0901 Y2.5294 Z-0.3239
G1 X-12.0891 Y2.5347 Z-0.3246
G1 X-12.0887 Y2.5401 Z-0.3254
G1 X-12.089 Y2.5456 Z-0.3261
G1 X-12.0899 Y2.5509 Z-0.3268
G1 X-12.0914 Y2.5561 Z-0.3276
G1 X-12.0935 Y2.5611 Z-0.3283
G1 X-12.0961 Y2.5659 Z-0.329
G1 X-12.0993 Y2.5702 Z-0.3297
G1 X-12.103 Y2.5742 Z-0.3305
G1 X-12.1071 Y2.5778 Z-0.3312
G1 X-12.1116 Y2.5808 Z-0.3319
G1 X-12.1164 Y2.5833 Z-0.3326
G1 X-12.1215 Y2.5853 Z-0.3334
G1 X-12.1267 Y2.5866 Z-0.3341
G1 X-12.1321 Y2.5873 Z-0.3348
G1 X-12.1375 Y2.5874 Z-0.3355
G1 X-12.1429 Y2.5868 Z-0.3363
G1 X-12.1482 Y2.5857 Z-0.337
G1 X-12.1534 Y2.5839 Z-0.3377
G1 X-12.1583 Y2.5816 Z-0.3384
G1 X-12.1628 Y2.5787 Z-0.3392
G1 X-12.1671 Y2.5753 Z-0.3399
G1 X-12.1709 Y2.5714 Z-0.3406
G1 X-12.1742 Y2.5671 Z-0.3413
G1 X-12.177 Y2.5625 Z-0.3421
G1 X-12.1792 Y2.5575 Z-0.3428
G1 X-12.1809 Y2.5523 Z-0.3435
G1 X-12.182 Y2.547 Z-0.3443
G1 X-12.1824 Y2.5416 Z-0.345
G1 X-12.1822 Y2.5362 Z-0.3457
G1 X-12.1814 Y2.5308 Z-0.3464
G1 X-12.1799 Y2.5256 Z-0.3472
G1 X-12.1779 Y2.5206 Z-0.3479
G1 X-12.1753 Y2.5158 Z-0.3486
G1 X-12.1722 Y2.5114 Z-0.3493
G1 X-12.1686 Y2.5073 Z-0.3501
G1 X-12.1645 Y2.5037 Z-0.3508
G1 X-12.16 Y2.5006 Z-0.3515
G1 X-12.1553 Y2.4981 Z-0.3522
G1 X-12.1502 Y2.4961 Z-0.353
G1 X-12.145 Y2.4947 Z-0.3537
G1 X-12.1396 Y2.4939 Z-0.3544
G1 X-12.1342 Y2.4937 Z-0.3551
G1 X-12.1288 Y2.4942 Z-0.3559
G1 X-12.1235 Y2.4953 Z-0.3566
G1 X-12.1183 Y2.497 Z-0.3573
G1 X-12.1134 Y2.4993 Z-0.3581
G1 X-12.1088 Y2.5021 Z-0.3588
G1 X-12.1045 Y2.5055 Z-0.3595
G1 X-12.1007 Y2.5093 Z-0.3602
G1 X-12.0973 Y2.5136 Z-0.361
G1 X-12.0944 Y2.5182 Z-0.3617
G1 X-12.0921 Y2.5231 Z-0.3624
G1 X-12.0904 Y2.5282 Z-0.3631
G1 X-12.0892 Y2.5335 Z-0.3639
G1 X-12.0887 Y2.5389 Z-0.3646
G1 X-12.0889 Y2.5444 Z-0.3653
G1 X-12.0896 Y2.5497 Z-0.366
G1 X-12.091 Y2.555 Z-0.3668
G1 X-12.0929 Y2.5601 Z-0.3675
G1 X-12.0955 Y2.5649 Z-0.3682
G1 X-12.0986 Y2.5693 Z-0.3689
G1 X-12.1021 Y2.5734 Z-0.3697
G1 X-12.1062 Y2.5771 Z-0.3704
G1 X-12.1106 Y2.5802 Z-0.3711
G1 X-12.1153 Y2.5828 Z-0.3718
G1 X-12.1203 Y2.5849 Z-0.3726
G1 X-12.1256 Y2.5864 Z-0.3733
G1 X-12.1309 Y2.5872 Z-0.374
G1 X-12.1363 Y2.5874 Z-0.3748
G1 X-12.1418 Y2.587 Z-0.3755
G1 X-12.1471 Y2.586 Z-0.3762
G1 X-12.1523 Y2.5844 Z-0.3769
G1 X-12.1572 Y2.5821 Z-0.3777
G1 X-12.1619 Y2.5793 Z-0.3784
G1 X-12.1662 Y2.576 Z-0.3791
G1 X-12.1701 Y2.5723 Z-0.3798
G1 X-12.1735 Y2.5681 Z-0.3806
G1 X-12.1764 Y2.5635 Z-0.3813
G1 X-12.1788 Y2.5586 Z-0.382
G1 X-12.1806 Y2.5535 Z-0.3827
G1 X-12.1818 Y2.5482 Z-0.3835
G1 X-12.1824 Y2.5428 Z-0.3842
G1 X-12.1823 Y2.5374 Z-0.3849
G1 X-12.1816 Y2.532 Z-0.3856
G1 X-12.1803 Y2.5267 Z-0.3864
G1 X-12.1784 Y2.5216 Z-0.3871
G1 X-12.1759 Y2.5168 Z-0.3878
G1 X-12.1729 Y2.5123 Z-0.3885
G1 X-12.1694 Y2.5082 Z-0.3893
G1 X-12.1654 Y2.5045 Z-0.39
G1 X-12.161 Y2.5013 Z-0.3907
G1 X-12.1563 Y2.4986 Z-0.3915
G1 X-12.1513 Y2.4965 Z-0.3922
G1 X-12.1461 Y2.4949 Z-0.3929
G1 X-12.1408 Y2.494 Z-0.3936
G1 X-12.1354 Y2.4937 Z-0.3944
G1 X-12.1299 Y2.4941 Z-0.3951
G1 X-12.1246 Y2.495 Z-0.3958
G1 X-12.1194 Y2.4966 Z-0.3965
G1 X-12.1144 Y2.4988 Z-0.3973
G1 X-12.1097 Y2.5015 Z-0.398
G1 X-12.1054 Y2.5047 Z-0.3987
G1 X-12.1015 Y2.5085 Z-0.3994
G1 X-12.098 Y2.5126 Z-0.4002
G1 X-12.095 Y2.5172 Z-0.4009
G1 X-12.0925 Y2.522 Z-0.4016
G1 X-12.0907 Y2.5271 Z-0.4023
G1 X-12.0894 Y2.5324 Z-0.4031
G1 X-12.0888 Y2.5378 Z-0.4038
G1 Y2.5432 Z-0.4045
G1 X-12.0894 Y2.5486 Z-0.4052
G1 X-12.0906 Y2.5539 Z-0.406
G1 X-12.0925 Y2.559 Z-0.4067
G1 X-12.0949 Y2.5638 Z-0.4074
G1 X-12.0978 Y2.5684 Z-0.4082
G1 X-12.1013 Y2.5726 Z-0.4089
G1 X-12.1052 Y2.5763 Z-0.4096
G1 X-12.1096 Y2.5796 Z-0.4103
G1 X-12.1143 Y2.5823 Z-0.4111
G1 X-12.1192 Y2.5845 Z-0.4118
G1 X-12.1244 Y2.5861 Z-0.4125
G1 X-12.1297 Y2.5871 Z-0.4132
G1 X-12.1352 Y2.5874 Z-0.414
G1 X-12.1406 Y2.5872 Z-0.4147
G1 X-12.1459 Y2.5863 Z-0.4154
G1 X-12.1511 Y2.5848 Z-0.4161
G1 X-12.1562 Y2.5827 Z-0.4169
G1 X-12.1609 Y2.58 Z-0.4176
G1 X-12.1653 Y2.5768 Z-0.4183
G1 X-12.1693 Y2.5731 Z-0.419
G1 X-12.1728 Y2.569 Z-0.4198
G1 X-12.1758 Y2.5645 Z-0.4205
G1 X-12.1783 Y2.5597 Z-0.4212
G1 X-12.1803 Y2.5546 Z-0.422
G1 X-12.1816 Y2.5494 Z-0.4227
G1 X-12.1823 Y2.544 Z-0.4234
G1 X-12.1824 Y2.5386 Z-0.4241
G1 X-12.1818 Y2.5332 Z-0.4249
G1 X-12.1806 Y2.5279 Z-0.4256
G1 X-12.1789 Y2.5227 Z-0.4263
G1 X-12.1765 Y2.5178 Z-0.427
G1 X-12.1736 Y2.5133 Z-0.4278
G1 X-12.1702 Y2.509 Z-0.4285
G1 X-12.1663 Y2.5052 Z-0.4292
G1 X-12.162 Y2.5019 Z-0.4299
G1 X-12.1574 Y2.4991 Z-0.4307
G1 X-12.1524 Y2.4969 Z-0.4314
G1 X-12.1473 Y2.4952 Z-0.4321
G1 X-12.142 Y2.4942 Z-0.4328
G1 X-12.1365 Y2.4937 Z-0.4336
G1 X-12.1311 Y2.4939 Z-0.4343
G1 X-12.1258 Y2.4948 Z-0.435
G1 X-12.1205 Y2.4962 Z-0.4357
G1 X-12.1155 Y2.4982 Z-0.4365
G1 X-12.1107 Y2.5008 Z-0.4372
G1 X-12.1063 Y2.504 Z-0.4379
G1 X-12.1023 Y2.5076 Z-0.4387
G1 X-12.0987 Y2.5117 Z-0.4394
G1 X-12.0956 Y2.5161 Z-0.4401
G1 X-12.093 Y2.5209 Z-0.4408
G1 X-12.091 Y2.526 Z-0.4416
G1 X-12.0897 Y2.5312 Z-0.4423
G1 X-12.0889 Y2.5366 Z-0.443
G1 X-12.0887 Y2.542 Z-0.4437
G1 X-12.0892 Y2.5474 Z-0.4445
G1 X-12.0903 Y2.5527 Z-0.4452
G1 X-12.092 Y2.5579 Z-0.4459
G1 X-12.0943 Y2.5628 Z-0.4466
G1 X-12.0972 Y2.5674 Z-0.4474
G1 X-12.1005 Y2.5717 Z-0.4481
G1 X-12.1043 Y2.5755 Z-0.4488
G1 X-12.1086 Y2.5789 Z-0.4495
G1 X-12.1132 Y2.5818 Z-0.4503
G1 X-12.1181 Y2.5841 Z-0.451
G1 X-12.1233 Y2.5858 Z-0.4517
G1 X-12.1286 Y2.5869 Z-0.4524
G1 X-12.134 Y2.5874 Z-0.4532
G1 X-12.1394 Y2.5873 Z-0.4539
G1 X-12.1448 Y2.5865 Z-0.4546
G1 X-12.15 Y2.5851 Z-0.4554
G1 X-12.1551 Y2.5832 Z-0.4561
G1 X-12.1599 Y2.5806 Z-0.4568
G1 X-12.1643 Y2.5775 Z-0.4575
G1 X-12.1684 Y2.574 Z-0.4583
G1 X-12.1721 Y2.5699 Z-0.459
G1 X-12.1752 Y2.5655 Z-0.4597
G1 X-12.1778 Y2.5608 Z-0.4604
G1 X-12.1799 Y2.5558 Z-0.4612
G1 X-12.1813 Y2.5505 Z-0.4619
G1 X-12.1822 Y2.5452 Z-0.4626
G1 X-12.1824 Y2.5397 Z-0.4633
G1 X-12.182 Y2.5343 Z-0.4641
G1 X-12.181 Y2.529 Z-0.4648
G1 X-12.1793 Y2.5238 Z-0.4655
G1 X-12.1771 Y2.5189 Z-0.4662
G1 X-12.1743 Y2.5142 Z-0.467
G1 X-12.171 Y2.5099 Z-0.4677
G1 X-12.1672 Y2.506 Z-0.4684
G1 X-12.163 Y2.5026 Z-0.4691
